luts/CoastalKodachrome.cube
TITLE "Coastal Kodachrome"
# Film-look LUT generated by generate_lut.py
# Input  : Rec.709 / sRGB display-referred
# Output : Rec.709 / sRGB display-referred
# Strength: 100%
LUT_3D_SIZE 9
DOMAIN_MIN 0.0 0.0 0.0
DOMAIN_MAX 1.0 1.0 1.0
0.055903 0.066885 0.065453
0.149631 0.071510 0.066502
0.250640 0.076955 0.067647
0.354642 0.084152 0.069642
0.460927 0.100561 0.080221
0.568740 0.118143 0.092696
0.677759 0.136057 0.105516
0.800213 0.154088 0.117971
0.862504 0.172985 0.133545
0.087269 0.164306 0.080193
0.162389 0.165028 0.088361
0.264948 0.180169 0.085836
0.366222 0.181649 0.088996
0.469041 0.183563 0.095276
0.574327 0.188431 0.103736
0.681701 0.196190 0.113856
0.802994 0.206068 0.124444
0.864583 0.218657 0.138919
0.127552 0.269711 0.106709
0.207858 0.271400 0.113483
0.276144 0.271380 0.128242
0.383556 0.293615 0.127961
0.487610 0.298937 0.129642
0.591585 0.299616 0.134251
0.696404 0.300332 0.139663
0.814680 0.302056 0.145633
0.874198 0.307690 0.157144
0.177916 0.378298 0.142707
0.252419 0.379177 0.152706
0.320196 0.382832 0.153068
0.393227 0.381128 0.174549
0.503401 0.405974 0.175454
0.610536 0.418284 0.173075
0.716384 0.420601 0.176951
0.833910 0.420625 0.180541
0.891887 0.422936 0.189532
0.229617 0.488937 0.179743
0.295955 0.489488 0.191910
0.370428 0.491541 0.193262
0.438674 0.497473 0.199199
0.512511 0.492953 0.221943
0.624238 0.518695 0.223707
0.733564 0.537061 0.222569
0.848252 0.543745 0.226998
0.902340 0.546981 0.238627
0.282146 0.601128 0.217430
0.341581 0.601522 0.231616
0.416395 0.602773 0.234465
0.487049 0.605883 0.234951
0.560910 0.613532 0.252913
0.632532 0.605970 0.276577
0.740571 0.632447 0.290961
0.852487 0.657539 0.305238
0.901973 0.666868 0.317891
0.342838 0.711348 0.265388
0.397783 0.711116 0.284566
0.469139 0.711528 0.292340
0.544643 0.713499 0.300225
0.608922 0.717953 0.306867
0.685370 0.727540 0.340902
0.749103 0.718452 0.363759
0.857248 0.749103 0.394485
0.905073 0.765085 0.413208
0.429045 0.820171 0.344464
0.478300 0.820230 0.367441
0.541888 0.820933 0.379024
0.614377 0.823087 0.392587
0.680334 0.827086 0.404644
0.739600 0.833923 0.420680
0.811789 0.845903 0.462383
0.870679 0.837089 0.483792
0.916012 0.852716 0.506704
0.494287 0.877019 0.411642
0.538813 0.877621 0.436110
0.594527 0.878773 0.447971
0.661354 0.881336 0.462427
0.725824 0.885494 0.476265
0.780494 0.891326 0.487628
0.843780 0.902348 0.519212
0.917166 0.916029 0.560480
0.926738 0.898448 0.559382
0.061979 0.082120 0.154849
0.155156 0.085669 0.151303
0.259780 0.086802 0.157078
0.361703 0.084788 0.147594
0.465185 0.092445 0.140370
0.571181 0.103815 0.137629
0.679102 0.116398 0.137765
0.800793 0.129051 0.138798
0.862654 0.145356 0.146871
0.059626 0.172134 0.157857
0.162600 0.169457 0.163094
0.255681 0.165412 0.154562
0.358871 0.169156 0.153717
0.464445 0.175054 0.154881
0.571712 0.182986 0.157951
0.680309 0.192733 0.162733
0.802355 0.203906 0.168374
0.864210 0.217086 0.178335
0.087491 0.274340 0.159279
0.198376 0.271890 0.180442
0.276861 0.275556 0.190113
0.380033 0.289139 0.183001
0.481126 0.288287 0.179541
0.584398 0.288058 0.178069
0.690035 0.289916 0.179283
0.809666 0.293596 0.182062
0.870071 0.300671 0.190451
0.131851 0.379844 0.166525
0.238648 0.379852 0.204367
0.320245 0.382390 0.205551
0.393728 0.384271 0.222356
0.502726 0.406936 0.218422
0.607311 0.412870 0.213794
0.711936 0.413141 0.213514
0.828848 0.412426 0.213012
0.886963 0.415076 0.218985
0.171810 0.489670 0.176882
0.280542 0.490122 0.230494
0.366574 0.491537 0.235768
0.436855 0.496857 0.237351
0.512887 0.495401 0.259624
0.624323 0.520565 0.258408
0.731810 0.535173 0.254226
0.845793 0.538892 0.256771
0.899722 0.541726 0.265253
0.236090 0.601651 0.215332
0.324844 0.602067 0.259400
0.410273 0.602929 0.268617
0.487087 0.605694 0.270076
0.559221 0.613172 0.283029
0.632807 0.607932 0.307065
0.740529 0.634230 0.318842
0.851480 0.657294 0.329569
0.900597 0.665296 0.339923
0.304503 0.712116 0.261912
0.380097 0.711628 0.302324
0.463044 0.711731 0.319354
0.542602 0.713471 0.327696
0.609109 0.717707 0.333242
0.684270 0.727480 0.363928
0.749493 0.720165 0.387454
0.857365 0.750767 0.415694
0.905077 0.766490 0.432793
0.398042 0.820638 0.339597
0.460390 0.820528 0.375924
0.536574 0.821140 0.399405
0.611604 0.823185 0.413119
0.680343 0.827139 0.425486
0.739414 0.833785 0.439119
0.811205 0.846049 0.479194
0.871266 0.838654 0.501375
0.916495 0.854235 0.522993
0.468907 0.877072 0.406798
0.520408 0.877590 0.437945
0.589928 0.878927 0.464010
0.658673 0.881426 0.478591
0.725212 0.885568 0.492655
0.781021 0.891378 0.503572
0.843327 0.902313 0.532699
0.916895 0.916409 0.573793
0.927362 0.899801 0.573252
0.071588 0.104924 0.253437
0.161047 0.085099 0.252603
0.262165 0.114365 0.245950
0.371808 0.127733 0.258717
0.478695 0.126321 0.255668
0.583338 0.126382 0.244554
0.688768 0.131404 0.234406
0.807995 0.139787 0.226144
0.868452 0.154271 0.227527
0.074353 0.196981 0.261038
0.169755 0.185996 0.259408
0.266258 0.189550 0.254535
0.372674 0.186866 0.258734
0.474444 0.177638 0.246309
0.578520 0.175863 0.236145
0.684978 0.179007 0.229583
0.805479 0.183860 0.224173
0.866525 0.194030 0.226751
0.067665 0.285396 0.258297
0.164812 0.286959 0.267034
0.276270 0.279342 0.268622
0.365518 0.268928 0.253552
0.470049 0.271391 0.251353
0.576655 0.275219 0.250416
0.684756 0.280376 0.250718
0.806211 0.286694 0.251608
0.867305 0.294990 0.256869
0.106779 0.391551 0.258158
0.189697 0.387175 0.263173
0.311628 0.382865 0.284171
0.394740 0.389470 0.296337
0.497829 0.401667 0.286115
0.598146 0.398706 0.279142
0.701167 0.396677 0.274218
0.818451 0.396258 0.270959
0.877311 0.400031 0.274448
0.158812 0.496071 0.264136
0.221622 0.493094 0.265509
0.350972 0.492489 0.305631
0.435771 0.495886 0.306503
0.513684 0.499890 0.325869
0.623597 0.522526 0.320220
0.727061 0.528053 0.313286
0.839551 0.527487 0.311638
0.893223 0.529466 0.315804
0.205059 0.604735 0.271339
0.252844 0.603771 0.270126
0.392853 0.603918 0.330705
0.483600 0.605556 0.334726
0.556136 0.612225 0.340214
0.633446 0.611840 0.365616
0.740467 0.637580 0.373109
0.848747 0.654912 0.377223
0.897208 0.660153 0.384433
0.253394 0.714241 0.285299
0.302419 0.713440 0.295043
0.445741 0.712637 0.371136
0.535528 0.713676 0.381544
0.610228 0.717519 0.388048
0.681970 0.727224 0.410355
0.750401 0.723789 0.435868
0.857648 0.754202 0.459437
0.904900 0.769069 0.473367
0.327307 0.822280 0.328486
0.394712 0.821560 0.365664
0.519030 0.821814 0.437362
0.603988 0.823538 0.455571
0.678987 0.827307 0.468730
0.739590 0.833586 0.479142
0.809914 0.846294 0.514859
0.872607 0.842089 0.539025
0.917592 0.857593 0.558166
0.409076 0.877695 0.395396
0.464553 0.877690 0.427393
0.571867 0.879237 0.491576
0.651524 0.881695 0.513378
0.722704 0.885751 0.527940
0.782486 0.891643 0.539264
0.842349 0.902156 0.562433
0.916316 0.917260 0.603256
0.928798 0.902849 0.604055
0.085459 0.136546 0.355300
0.160551 0.100541 0.353356
0.277588 0.121125 0.354055
0.372579 0.152746 0.344182
0.484144 0.170654 0.358280
0.595969 0.173141 0.363855
0.703628 0.170604 0.356343
0.822237 0.168844 0.342898
0.881501 0.177678 0.338442
0.097099 0.225451 0.360615
0.179097 0.207350 0.359905
0.273910 0.187457 0.358543
0.375646 0.215019 0.350941
0.487293 0.223454 0.363803
0.595264 0.215692 0.360940
0.700680 0.208427 0.349444
0.818588 0.204577 0.335813
0.877931 0.211039 0.332529
0.089233 0.310916 0.372744
0.183472 0.308556 0.370597
0.281610 0.293520 0.367517
0.381008 0.297921 0.361280
0.488224 0.292436 0.363969
0.589297 0.279575 0.349149
0.693417 0.274146 0.337129
0.812106 0.272628 0.327230
0.871996 0.277522 0.326368
0.091350 0.402114 0.363278
0.168426 0.403269 0.370169
0.282769 0.405264 0.380236
0.393234 0.392423 0.377232
0.477848 0.375841 0.355859
0.583257 0.377586 0.352905
0.690675 0.380510 0.351026
0.811271 0.384253 0.349409
0.871231 0.389717 0.351994
0.127062 0.511530 0.360947
0.194079 0.509371 0.366279
0.300899 0.502206 0.371165
0.427977 0.496105 0.391300
0.514881 0.505676 0.406064
0.617407 0.516307 0.393396
0.716143 0.511368 0.384181
0.827466 0.507519 0.377145
0.881700 0.509352 0.378556
0.180794 0.616692 0.365622
0.235921 0.613610 0.368589
0.327630 0.608072 0.370455
0.468087 0.606616 0.413048
0.554041 0.610730 0.415762
0.634501 0.617131 0.440236
0.739554 0.640315 0.441696
0.843200 0.646452 0.438908
0.891012 0.648817 0.443180
0.241434 0.721088 0.377401
0.286103 0.718525 0.379916
0.364459 0.715426 0.381745
0.518498 0.714856 0.450275
0.608159 0.717518 0.459232
0.678764 0.726410 0.471740
0.751863 0.728911 0.500460
0.858083 0.758654 0.518157
0.903673 0.770805 0.526974
0.324577 0.825639 0.411743
0.359395 0.824296 0.414474
0.429811 0.823040 0.423731
0.588007 0.824567 0.512242
0.673067 0.827770 0.526568
0.741324 0.833799 0.537338
0.807929 0.846369 0.563996
0.874671 0.847082 0.591490
0.919256 0.862494 0.607557
0.392100 0.879914 0.452098
0.420109 0.879307 0.454742
0.493117 0.879047 0.477102
0.636752 0.882414 0.561637
0.715973 0.886122 0.577086
0.783262 0.891983 0.589734
0.841101 0.901728 0.605555
0.915510 0.918494 0.645854
0.931003 0.907383 0.648739
0.103727 0.173647 0.459312
0.161007 0.126467 0.456732
0.272677 0.128240 0.457082
0.395640 0.162900 0.457427
0.485104 0.192774 0.444355
0.597991 0.213235 0.458856
0.712897 0.220121 0.469849
0.836231 0.216637 0.467017
0.896498 0.221496 0.463553
0.117729 0.253111 0.463511
0.189856 0.231578 0.462889
0.272625 0.194523 0.460638
0.393364 0.216712 0.460745
0.487516 0.244145 0.449802
0.600465 0.258210 0.463890
0.713961 0.257497 0.470928
0.834948 0.248576 0.463383
0.894373 0.250344 0.458828
0.121224 0.337311 0.472239
0.203082 0.335391 0.470350
0.292186 0.315349 0.469309
0.390523 0.295961 0.467226
0.491923 0.321820 0.458825
0.605205 0.328445 0.471909
0.713384 0.317663 0.468034
0.830368 0.304815 0.453557
0.888547 0.304599 0.448080
0.109740 0.430910 0.487209
0.185495 0.427570 0.486250
0.297613 0.423597 0.482879
0.396842 0.404323 0.477955
0.498221 0.409572 0.470431
0.605469 0.401545 0.471146
0.705550 0.386243 0.454089
0.820896 0.377746 0.439109
0.878896 0.379012 0.435720
0.116147 0.521038 0.470270
0.178028 0.521932 0.475793
0.282029 0.523641 0.484949
0.405058 0.525739 0.495678
0.512395 0.507633 0.487893
0.592090 0.485061 0.460398
0.697959 0.486163 0.456798
0.815765 0.488783 0.454308
0.872099 0.493133 0.456139
0.149108 0.633016 0.466002
0.203278 0.632038 0.470943
0.302235 0.628298 0.478457
0.419034 0.618060 0.482194
0.547249 0.610564 0.502425
0.635972 0.623362 0.522082
0.732599 0.633405 0.512075
0.831675 0.627500 0.503131
0.878927 0.627825 0.503191
0.214311 0.735455 0.474153
0.262037 0.732780 0.478273
0.350933 0.726896 0.484887
0.454040 0.719437 0.489023
0.594832 0.718712 0.535790
0.676315 0.724852 0.543157
0.753882 0.735102 0.572964
0.857077 0.761162 0.582006
0.899392 0.767331 0.584591
0.309875 0.835342 0.501261
0.348046 0.833107 0.505443
0.421348 0.828970 0.512645
0.508631 0.826095 0.518650
0.658634 0.829045 0.590835
0.740429 0.834235 0.603696
0.805253 0.845764 0.620328
0.877355 0.853168 0.652061
0.921335 0.868407 0.664779
0.383682 0.887092 0.534564
0.414435 0.885564 0.538375
0.475921 0.882930 0.545290
0.552620 0.881835 0.552309
0.701838 0.887011 0.633327
0.779909 0.892353 0.647514
0.840530 0.901083 0.658440
0.914520 0.919881 0.696441
0.933824 0.912969 0.701982
0.125363 0.210071 0.564724
0.163032 0.154144 0.561813
0.272466 0.147790 0.561299
0.391806 0.166012 0.562158
0.514299 0.205198 0.562270
0.599206 0.233489 0.545945
0.713181 0.255719 0.560616
0.842471 0.265150 0.574903
0.906026 0.272262 0.579544
0.137958 0.280565 0.568431
0.202251 0.258583 0.567624
0.272264 0.210490 0.564723
0.388976 0.215385 0.565155
0.513010 0.250244 0.564786
0.601164 0.276322 0.550429
0.715127 0.294028 0.564872
0.843959 0.297914 0.577304
0.906390 0.300950 0.579856
0.149150 0.366817 0.574828
0.218330 0.361772 0.573935
0.301576 0.337182 0.573150
0.388825 0.299609 0.570509
0.511188 0.322869 0.569849
0.604933 0.348129 0.558443
0.719123 0.360261 0.572704
0.845623 0.355679 0.579320
0.905669 0.353792 0.577901
0.143101 0.452999 0.587097
0.213436 0.451872 0.585367
0.315557 0.449171 0.582348
0.407393 0.425936 0.580758
0.509415 0.408640 0.577866
0.610253 0.432942 0.568834
0.724929 0.438381 0.582081
0.843949 0.423248 0.575065
0.900478 0.418498 0.569150
0.131651 0.554817 0.603491
0.192375 0.551493 0.603140
0.296040 0.546464 0.601734
0.416272 0.540870 0.597021
0.514198 0.517154 0.590020
0.617030 0.523414 0.581230
0.722581 0.513059 0.579485
0.830234 0.494642 0.558619
0.883251 0.492326 0.552581
0.141752 0.641565 0.578748
0.192960 0.642107 0.583189
0.288086 0.643095 0.591272
0.406517 0.644611 0.601528
0.533640 0.646542 0.612973
0.632823 0.624457 0.601219
0.704298 0.596974 0.568756
0.813378 0.599061 0.566593
0.864172 0.603172 0.568716
0.190852 0.749986 0.574489
0.236911 0.749090 0.579436
0.326229 0.746881 0.588666
0.438523 0.742057 0.598562
0.551731 0.730631 0.602087
0.671188 0.724616 0.623195
0.756396 0.742057 0.648742
0.848875 0.752117 0.641994
0.888186 0.751346 0.640508
0.287885 0.849483 0.593371
0.327034 0.847799 0.598063
0.404747 0.844089 0.606974
0.502258 0.838319 0.616636
0.599455 0.832182 0.622585
0.729809 0.835503 0.671507
0.803174 0.844321 0.682644
0.880571 0.860032 0.716531
0.923591 0.874766 0.725578
0.366495 0.899399 0.619743
0.398732 0.897984 0.624029
0.464780 0.894893 0.632450
0.549878 0.890493 0.641999
0.636765 0.887394 0.648935
0.768236 0.893296 0.707895
0.841745 0.901045 0.720219
0.913092 0.920973 0.751040
0.937141 0.919290 0.759994
0.147626 0.246869 0.671312
0.173992 0.189370 0.668420
0.272831 0.173571 0.667120
0.387656 0.176671 0.667701
0.513804 0.207729 0.668193
0.633628 0.247554 0.668330
0.714580 0.274736 0.648676
0.842120 0.298788 0.664745
0.906428 0.312221 0.674438
0.158722 0.309215 0.674594
0.216171 0.287929 0.673718
0.272273 0.229702 0.670380
0.387273 0.224517 0.670164
0.511180 0.247869 0.670673
0.632803 0.285713 0.670320
0.716207 0.310914 0.652434
0.843669 0.331511 0.668339
0.907824 0.341743 0.677653
0.173505 0.395878 0.679730
0.232368 0.387662 0.679570
0.311985 0.360936 0.678559
0.388250 0.312112 0.675297
0.507573 0.318555 0.675578
0.631660 0.352903 0.674420
0.719492 0.376739 0.659600
0.846901 0.392576 0.675374
0.910646 0.398567 0.683969
0.175068 0.481689 0.689484
0.237682 0.480566 0.687971
0.329299 0.474856 0.686366
0.417952 0.448322 0.685366
0.507573 0.410545 0.682272
0.630666 0.434352 0.680708
0.724084 0.458073 0.669044
0.849038 0.469559 0.683631
0.908821 0.471743 0.689282
0.164266 0.572654 0.704047
0.222488 0.571067 0.702852
0.321819 0.568860 0.700063
0.433218 0.565125 0.695478
0.524725 0.538663 0.693241
0.629469 0.523950 0.689034
0.726809 0.547707 0.678295
0.846502 0.553068 0.690527
0.899397 0.548849 0.689092
0.159939 0.680040 0.719278
0.210510 0.676795 0.718742
0.304909 0.671222 0.717422
0.421897 0.665064 0.714713
0.543237 0.658569 0.708382
0.634941 0.632473 0.699210
0.731866 0.640693 0.691282
0.835794 0.627474 0.685658
0.880620 0.620125 0.677047
0.191100 0.756791 0.685574
0.235173 0.756823 0.689205
0.321507 0.757274 0.696575
0.431977 0.758807 0.706807
0.551412 0.761976 0.719263
0.669324 0.763031 0.730761
0.753338 0.742677 0.718538
0.818162 0.711946 0.682742
0.862583 0.715101 0.684347
0.274317 0.861784 0.686570
0.312041 0.861404 0.691292
0.388539 0.860762 0.701222
0.488498 0.859691 0.714033
0.595280 0.856372 0.725642
0.693591 0.845993 0.728637
0.798800 0.844354 0.751523
0.884087 0.867302 0.782309
0.924462 0.879265 0.786149
0.350403 0.912532 0.706608
0.382328 0.912068 0.711107
0.449091 0.911057 0.720440
0.538320 0.909168 0.732316
0.634231 0.904985 0.742748
0.723593 0.897441 0.746991
0.835396 0.901345 0.782735
0.909838 0.920248 0.805904
0.940863 0.926142 0.820507
0.170424 0.284716 0.783624
0.204389 0.242966 0.781477
0.273271 0.201461 0.778926
0.387410 0.196927 0.778717
0.507798 0.213273 0.779653
0.636478 0.250477 0.779726
0.754165 0.289695 0.779895
0.843314 0.318262 0.757184
0.906207 0.337850 0.766288
0.180238 0.339943 0.786518
0.231712 0.319823 0.785629
0.273114 0.251340 0.781898
0.387554 0.242883 0.781016
0.505965 0.250984 0.781775
0.634526 0.284325 0.781733
0.753543 0.322336 0.781501
0.844623 0.349208 0.760354
0.907287 0.366540 0.769297
0.195925 0.425074 0.791018
0.247508 0.414914 0.791026
0.323660 0.387155 0.789840
0.387366 0.327602 0.786125
0.505074 0.322860 0.785889
0.631093 0.347477 0.785919
0.752623 0.384054 0.784891
0.847237 0.409266 0.766627
0.907783 0.424129 0.774383
0.204400 0.512839 0.798575
0.259216 0.510406 0.797548
0.341697 0.500592 0.797070
0.427773 0.471219 0.795809
0.506816 0.421607 0.792082
0.627686 0.428464 0.792041
0.751182 0.462426 0.789109
0.846219 0.488412 0.771748
0.902735 0.501619 0.778243
0.199438 0.600048 0.810510
0.253510 0.599230 0.808733
0.346422 0.597358 0.804970
0.447916 0.590928 0.801341
0.536573 0.562093 0.800153
0.627484 0.525050 0.797196
0.746704 0.550287 0.790507
0.842317 0.577514 0.776445
0.895437 0.588792 0.783472
0.197300 0.693632 0.820314
0.246743 0.691607 0.818466
0.339117 0.688478 0.814536
0.451439 0.685667 0.808761
0.562446 0.682104 0.802246
0.645374 0.654306 0.799666
0.744644 0.643515 0.794512
0.841917 0.670089 0.785938
0.892326 0.678781 0.794561
0.226918 0.797414 0.827339
0.268269 0.794843 0.826882
0.350007 0.790270 0.826066
0.455297 0.785353 0.825060
0.569018 0.781094 0.823358
0.679299 0.776446 0.818312
0.757061 0.750785 0.807992
0.851348 0.762018 0.805152
0.894955 0.762400 0.808702
0.280370 0.867662 0.790534
0.316573 0.867959 0.793940
0.390666 0.869075 0.801319
0.488564 0.871734 0.812088
0.596014 0.876443 0.825512
0.704996 0.883257 0.841006
0.805118 0.882729 0.850855
0.880470 0.866360 0.840799
0.898206 0.849425 0.821992
0.348953 0.920732 0.796724
0.379624 0.921158 0.800464
0.444388 0.922447 0.808741
0.532467 0.925031 0.820884
0.630742 0.928752 0.835564
0.730192 0.931523 0.850200
0.820200 0.922089 0.852459
0.900707 0.916877 0.860121
0.942143 0.930760 0.877375
0.191583 0.317914 0.860567
0.233021 0.290797 0.859066
0.276099 0.228612 0.855479
0.389051 0.221438 0.854549
0.505952 0.227523 0.854985
0.633667 0.257752 0.854958
0.759627 0.298786 0.854153
0.876690 0.333869 0.849732
0.907208 0.352423 0.827394
0.200177 0.366617 0.862942
0.246577 0.348276 0.862069
0.276418 0.272844 0.857983
0.388717 0.263040 0.856580
0.505437 0.263027 0.856616
0.631594 0.288740 0.856638
0.758531 0.328026 0.855581
0.877835 0.362304 0.852412
0.908152 0.379223 0.829936
0.214859 0.447676 0.866724
0.261466 0.437310 0.866594
0.334399 0.410028 0.865267
0.388474 0.343221 0.861064
0.506088 0.335330 0.859970
0.628213 0.349682 0.860083
0.756471 0.385468 0.858614
0.878647 0.419694 0.856322
0.907142 0.435005 0.832844
0.226387 0.535612 0.872275
0.275196 0.532167 0.871540
0.352139 0.520348 0.871286
0.436325 0.490322 0.869721
0.507037 0.433306 0.865390
0.626299 0.431544 0.864765
0.752985 0.460917 0.861631
0.871121 0.497422 0.853229
0.901195 0.511524 0.833464
0.226720 0.621364 0.879728
0.276721 0.620496 0.877371
0.363710 0.617941 0.873015
0.458544 0.609155 0.869708
0.545618 0.579928 0.868380
0.627838 0.533779 0.866088
0.746395 0.548124 0.859682
0.861733 0.585595 0.848741
0.893714 0.598758 0.834471
0.230055 0.708879 0.883017
0.276924 0.707582 0.880509
0.365097 0.705703 0.875424
0.471688 0.703983 0.868756
0.575071 0.699751 0.862934
0.655687 0.671900 0.861114
0.744261 0.644853 0.857026
0.856729 0.677625 0.848513
0.890571 0.689955 0.840643
0.254534 0.803558 0.885209
0.294685 0.801579 0.884044
0.374662 0.798214 0.881701
0.477837 0.795036 0.878509
0.588092 0.792987 0.874391
0.692315 0.790915 0.868814
0.763931 0.765238 0.863805
0.861374 0.769793 0.857647
0.896625 0.781035 0.855762
0.324385 0.907522 0.888883
0.358422 0.908069 0.891605
0.426579 0.907316 0.895176
0.515419 0.904349 0.897709
0.614333 0.902238 0.901329
0.715988 0.901092 0.905495
0.814288 0.898590 0.906909
0.883441 0.869879 0.885262
0.920398 0.874660 0.887144
0.358798 0.923226 0.854649
0.388475 0.923879 0.857782
0.451540 0.925722 0.864810
0.537941 0.929342 0.875360
0.635029 0.934944 0.888525
0.735305 0.942649 0.903782
0.838830 0.952744 0.921398
0.908368 0.930544 0.909042
0.939302 0.928953 0.908268
