luts/CoastalKodachrome_Soft.cube
TITLE "Coastal Kodachrome Soft"
# Film-look LUT generated by generate_lut.py
# Input  : Rec.709 / sRGB display-referred
# Output : Rec.709 / sRGB display-referred
# Strength: 65%
LUT_3D_SIZE 5
DOMAIN_MIN 0.0 0.0 0.0
DOMAIN_MAX 1.0 1.0 1.0
0.036337 0.043475 0.042544
0.250416 0.050021 0.043970
0.474603 0.065364 0.052144
0.703043 0.088437 0.068585
0.910628 0.112440 0.086804
0.082909 0.262812 0.069361
0.266994 0.263897 0.083357
0.491947 0.281809 0.084268
0.715162 0.282716 0.090781
0.918229 0.287498 0.102144
0.149251 0.492809 0.116833
0.328278 0.494502 0.125620
0.508132 0.495419 0.144263
0.739317 0.524090 0.144670
0.936521 0.530538 0.155107
0.222845 0.724876 0.172502
0.392440 0.724993 0.190021
0.570799 0.729169 0.199463
0.749417 0.729494 0.236444
0.938297 0.759805 0.268585
0.321287 0.920062 0.267567
0.473943 0.921202 0.291181
0.646785 0.925571 0.309573
0.810957 0.936526 0.337488
0.952379 0.933991 0.363598
0.046532 0.068200 0.252234
0.257907 0.074337 0.247367
0.486152 0.082109 0.253684
0.710199 0.085413 0.239864
0.914494 0.100276 0.235393
0.043982 0.273007 0.255393
0.267076 0.269072 0.262104
0.480532 0.263904 0.250879
0.707592 0.269745 0.250467
0.913748 0.279243 0.254465
0.103228 0.497446 0.259188
0.315632 0.495118 0.286160
0.508895 0.499928 0.299315
0.735090 0.518234 0.291136
0.930595 0.519153 0.292772
0.164706 0.726757 0.272944
0.377232 0.725714 0.328738
0.571648 0.728887 0.339731
0.750261 0.732963 0.370814
0.938185 0.762395 0.395188
0.265900 0.920502 0.344507
0.459214 0.921504 0.407024
0.644758 0.925738 0.430661
0.810027 0.936401 0.453081
0.953719 0.936852 0.480136
0.067423 0.112871 0.473553
0.264740 0.083356 0.472103
0.490317 0.125303 0.463831
0.725883 0.143079 0.480402
0.932724 0.143972 0.476309
0.078796 0.306752 0.481956
0.277421 0.292477 0.480051
0.494750 0.296683 0.473236
0.726200 0.293981 0.479222
0.927556 0.285489 0.466252
0.075495 0.513674 0.480676
0.270819 0.515366 0.490217
0.508057 0.504961 0.492131
0.716173 0.491006 0.471919
0.916865 0.495536 0.471490
0.139302 0.740546 0.483200
0.315606 0.734982 0.490177
0.561641 0.729663 0.523263
0.752523 0.740316 0.547427
0.934605 0.761265 0.554984
0.249393 0.926610 0.522466
0.396849 0.923904 0.529439
0.631194 0.926557 0.586663
0.808845 0.935704 0.602986
0.956985 0.943430 0.631288
0.095957 0.160465 0.698853
0.264840 0.112821 0.696128
0.508972 0.135024 0.696826
0.726977 0.178578 0.684139
0.939178 0.202943 0.700885
0.112778 0.344821 0.704325
0.290290 0.322109 0.703563
0.504923 0.294561 0.701626
0.730170 0.332380 0.691240
0.941920 0.346569 0.707080
0.106773 0.547225 0.720131
0.296683 0.544759 0.717541
0.516072 0.525131 0.713107
0.734926 0.531010 0.703392
0.934608 0.531752 0.710410
0.124215 0.754414 0.708123
0.296480 0.754728 0.715273
0.533418 0.757785 0.730021
0.752170 0.745240 0.729550
0.910679 0.727316 0.707325
0.227762 0.943146 0.721795
0.379409 0.942187 0.730786
0.587250 0.938240 0.745286
0.805508 0.935874 0.771277
0.961561 0.951992 0.795829
0.124529 0.206644 0.909368
0.266964 0.148598 0.906061
0.503869 0.147890 0.905740
0.756257 0.194211 0.905200
0.939685 0.229075 0.887806
0.139658 0.378489 0.913370
0.304859 0.354018 0.912424
0.503957 0.305465 0.908981
0.754206 0.338054 0.908099
0.939642 0.370253 0.891348
0.147368 0.578886 0.921823
0.323912 0.576662 0.917460
0.529651 0.551953 0.914447
0.747657 0.531281 0.908794
0.930914 0.564193 0.892406
0.165447 0.784813 0.925386
0.331030 0.781339 0.923106
0.557260 0.777942 0.918354
0.759055 0.759905 0.911473
0.932806 0.770172 0.906245
0.233219 0.950097 0.905522
0.381001 0.951720 0.912127
0.587769 0.957714 0.927541
0.807740 0.969284 0.948909
0.960546 0.953820 0.940374
