luts/CoastalKodachrome.cube
TITLE "Coastal Kodachrome"
# Film-look LUT generated by generate_lut.py
# Input  : Rec.709 / sRGB display-referred
# Output : Rec.709 / sRGB display-referred
# Strength: 100%
LUT_3D_SIZE 33
DOMAIN_MIN 0.0 0.0 0.0
DOMAIN_MAX 1.0 1.0 1.0
0.055903 0.066885 0.065453
0.077621 0.067936 0.065695
0.101019 0.069073 0.065956
0.125098 0.070267 0.066226
0.149631 0.071510 0.066502
0.174508 0.072800 0.066782
0.199663 0.074137 0.067067
0.225051 0.075521 0.067355
0.250640 0.076955 0.067647
0.276408 0.078439 0.067942
0.302335 0.079976 0.068241
0.328406 0.081568 0.068542
0.354642 0.084152 0.069642
0.381037 0.087825 0.071754
0.407559 0.091932 0.074274
0.434193 0.096233 0.077186
0.460927 0.100561 0.080221
0.487754 0.104918 0.083296
0.514668 0.109303 0.086404
0.541665 0.113712 0.089538
0.568740 0.118143 0.092696
0.595891 0.122594 0.095875
0.623113 0.127065 0.099072
0.650403 0.131553 0.102286
0.677759 0.136057 0.105516
0.705178 0.140577 0.108760
0.743194 0.144999 0.111513
0.774610 0.149505 0.114596
0.800213 0.154088 0.117971
0.821049 0.158736 0.121589
0.837945 0.163440 0.125410
0.851576 0.168191 0.129405
0.862504 0.172985 0.133545
0.062831 0.089310 0.068364
0.081117 0.089732 0.070044
0.105002 0.093226 0.068537
0.128583 0.093556 0.067740
0.152567 0.093961 0.067255
0.177019 0.095165 0.067528
0.201854 0.096506 0.067810
0.227003 0.097954 0.068098
0.252402 0.099403 0.068389
0.278009 0.100810 0.068680
0.303797 0.102198 0.069019
0.329777 0.104534 0.070334
0.355908 0.107061 0.072027
0.382175 0.109762 0.074091
0.408569 0.112617 0.076535
0.435083 0.115621 0.079307
0.461717 0.118781 0.082166
0.488462 0.122080 0.085088
0.515308 0.125503 0.088062
0.542248 0.129036 0.091080
0.569276 0.132667 0.094136
0.596387 0.136386 0.097226
0.623575 0.140185 0.100345
0.650837 0.144055 0.103490
0.678168 0.147990 0.106657
0.705565 0.151981 0.109844
0.743576 0.155908 0.112543
0.774958 0.159957 0.115578
0.800533 0.164114 0.118910
0.821346 0.168364 0.122488
0.838222 0.172696 0.126273
0.851837 0.177100 0.130234
0.862750 0.181568 0.134343
0.070425 0.113632 0.071654
0.091223 0.114326 0.072165
0.107652 0.114186 0.075170
0.132636 0.119544 0.074036
0.157084 0.121715 0.072649
0.181558 0.122364 0.072278
0.206165 0.122809 0.071947
0.230970 0.123283 0.071804
0.255998 0.123901 0.071930
0.281251 0.124717 0.072364
0.306716 0.125752 0.073130
0.332376 0.127007 0.074244
0.358214 0.128474 0.075719
0.384213 0.130143 0.077570
0.410361 0.132002 0.079812
0.436662 0.134070 0.082296
0.463113 0.136351 0.084883
0.489698 0.138825 0.087564
0.516408 0.141475 0.090326
0.543229 0.144283 0.093156
0.570155 0.147236 0.096047
0.597177 0.150321 0.098989
0.624288 0.153525 0.101978
0.651482 0.156837 0.105007
0.678755 0.160250 0.108071
0.706101 0.163754 0.111167
0.744083 0.167215 0.113778
0.775410 0.170837 0.116742
0.800942 0.174597 0.120014
0.821721 0.178477 0.123540
0.838570 0.182462 0.127280
0.852162 0.186538 0.131200
0.863057 0.190695 0.135271
0.078582 0.138727 0.075576
0.102079 0.139224 0.076965
0.117930 0.140331 0.077155
0.134766 0.139343 0.081237
0.160312 0.145163 0.080652
0.185665 0.149217 0.079063
0.210574 0.150788 0.078329
0.235541 0.151457 0.078409
0.260557 0.151912 0.078552
0.285665 0.152301 0.078864
0.310898 0.152717 0.079424
0.336274 0.153223 0.080284
0.361803 0.153859 0.081484
0.387486 0.154647 0.083054
0.413330 0.155614 0.084960
0.439354 0.156814 0.087024
0.465548 0.158241 0.089229
0.491901 0.159886 0.091560
0.518399 0.161737 0.094004
0.545032 0.163779 0.096547
0.571788 0.166000 0.099178
0.598659 0.168386 0.101887
0.625636 0.170926 0.104665
0.652710 0.173606 0.107504
0.679876 0.176418 0.110397
0.707127 0.179350 0.113339
0.745036 0.182246 0.115790
0.776259 0.185347 0.118625
0.801708 0.188624 0.121788
0.822420 0.192050 0.125220
0.839214 0.195607 0.128877
0.852760 0.199279 0.132723
0.863616 0.203053 0.136728
0.087269 0.164306 0.080193
0.112441 0.164701 0.082312
0.129224 0.165396 0.081800
0.145864 0.166958 0.084304
0.162389 0.165028 0.088361
0.188301 0.171008 0.088287
0.214310 0.176159 0.087023
0.239705 0.178976 0.085860
0.264948 0.180169 0.085836
0.290226 0.180762 0.086399
0.315510 0.181143 0.087062
0.340833 0.181415 0.087906
0.366222 0.181649 0.088996
0.391705 0.181910 0.090354
0.417327 0.182293 0.091852
0.443103 0.182836 0.093492
0.469041 0.183563 0.095276
0.495138 0.184485 0.097201
0.521389 0.185606 0.099259
0.547788 0.186923 0.101440
0.574327 0.188431 0.103736
0.600996 0.190121 0.106135
0.627786 0.191984 0.108627
0.654691 0.194010 0.111204
0.681701 0.196190 0.113856
0.708811 0.198515 0.116577
0.746604 0.200788 0.118795
0.777670 0.203320 0.121441
0.802994 0.206068 0.124444
0.823603 0.208998 0.127737
0.840313 0.212085 0.131272
0.853787 0.215310 0.135010
0.864583 0.218657 0.138919
0.096492 0.190251 0.085561
0.122879 0.190581 0.088465
0.140873 0.191109 0.088479
0.155983 0.192082 0.087924
0.174367 0.193961 0.092700
0.190401 0.191132 0.096627
0.216609 0.197197 0.097050
0.243017 0.202919 0.096157
0.268930 0.206792 0.095058
0.294443 0.208783 0.094648
0.319924 0.209658 0.095361
0.345399 0.210112 0.096440
0.370862 0.210369 0.097600
0.396359 0.210539 0.098776
0.421921 0.210693 0.100012
0.447576 0.210890 0.101336
0.473345 0.211177 0.102768
0.499243 0.211587 0.104320
0.525278 0.212145 0.105999
0.551452 0.212865 0.107804
0.577766 0.213756 0.109734
0.604214 0.214820 0.111781
0.630793 0.216056 0.113940
0.657496 0.217460 0.116203
0.684317 0.219027 0.118561
0.711249 0.220751 0.121007
0.748888 0.222388 0.122924
0.779749 0.224339 0.125324
0.804908 0.226546 0.128118
0.825382 0.228968 0.131231
0.841978 0.231573 0.134607
0.855357 0.234338 0.138203
0.866070 0.237244 0.141983
0.106262 0.216495 0.091735
0.133496 0.216778 0.095538
0.151829 0.217195 0.095865
0.168209 0.217921 0.095442
0.183802 0.219237 0.096296
0.203213 0.221251 0.102242
0.218728 0.217593 0.106118
0.245186 0.223716 0.107013
0.271820 0.229723 0.106433
0.298214 0.234397 0.105680
0.324045 0.237170 0.105151
0.349689 0.238555 0.105459
0.375359 0.239195 0.106579
0.401012 0.239567 0.107738
0.426665 0.239793 0.108884
0.452348 0.239941 0.110050
0.478084 0.240069 0.111266
0.503898 0.240224 0.112555
0.529806 0.240445 0.113936
0.555822 0.240761 0.115420
0.581956 0.241197 0.117014
0.608211 0.241767 0.118722
0.634591 0.242483 0.120543
0.661093 0.243350 0.122475
0.687716 0.244370 0.124514
0.714455 0.245544 0.126653
0.751922 0.246572 0.128222
0.782543 0.247963 0.130336
0.807507 0.249649 0.132884
0.827819 0.251578 0.135782
0.844279 0.253714 0.138968
0.857541 0.256030 0.142394
0.868155 0.258504 0.146021
0.116596 0.242992 0.098767
0.144257 0.243238 0.103606
0.162441 0.243576 0.104130
0.180026 0.244152 0.104195
0.195345 0.245051 0.103543
0.212297 0.246714 0.106465
0.232311 0.248783 0.112999
0.247322 0.244367 0.116905
0.273996 0.250536 0.118173
0.300796 0.256701 0.117761
0.327574 0.261940 0.117173
0.353754 0.265433 0.116411
0.379622 0.267432 0.116210
0.405432 0.268439 0.116866
0.431272 0.268959 0.118048
0.457091 0.269282 0.119194
0.482913 0.269482 0.120332
0.508761 0.269614 0.121490
0.534654 0.269723 0.122690
0.560613 0.269848 0.123953
0.586651 0.270021 0.125294
0.612781 0.270270 0.126724
0.639013 0.270615 0.128251
0.665351 0.271072 0.129879
0.691800 0.271653 0.131611
0.718373 0.272366 0.133444
0.755666 0.272859 0.134652
0.786032 0.273748 0.136461
0.810785 0.274959 0.138744
0.830920 0.276434 0.141408
0.847231 0.278136 0.144385
0.860366 0.280033 0.147623
0.870869 0.282102 0.151079
0.127552 0.269711 0.106709
0.155094 0.269925 0.112686
0.172899 0.270201 0.113329
0.191102 0.270667 0.113694
0.207858 0.271400 0.113483
0.223020 0.272515 0.113284
0.241222 0.274443 0.117836
0.261640 0.276527 0.124495
0.276144 0.271380 0.128242
0.303008 0.277578 0.129668
0.329959 0.283844 0.129312
0.357021 0.289480 0.128795
0.383556 0.293615 0.127961
0.409682 0.296237 0.127408
0.435647 0.297723 0.127543
0.461626 0.298489 0.128474
0.487610 0.298937 0.129642
0.513579 0.299223 0.130779
0.539552 0.299403 0.131912
0.565549 0.299521 0.133062
0.591585 0.299616 0.134251
0.617676 0.299718 0.135493
0.643836 0.299857 0.136802
0.670076 0.300055 0.138190
0.696404 0.300332 0.139663
0.723015 0.300695 0.141212
0.760016 0.300773 0.142096
0.790136 0.301250 0.143613
0.814680 0.302056 0.145633
0.834640 0.303139 0.148061
0.850801 0.304459 0.150824
0.863807 0.305984 0.153867
0.874198 0.307690 0.157144
0.139867 0.296623 0.115523
0.166165 0.296810 0.122082
0.183442 0.297037 0.122770
0.201796 0.297423 0.123279
0.219632 0.298023 0.123396
0.235551 0.298900 0.122890
0.251345 0.300283 0.123809
0.270491 0.302390 0.129479
0.291201 0.304461 0.136071
0.305165 0.298580 0.139689
0.332201 0.304807 0.141258
0.359290 0.311142 0.140980
0.386547 0.317045 0.140488
0.413430 0.321736 0.139698
0.439833 0.324955 0.138926
0.465990 0.326959 0.138658
0.492080 0.328097 0.139096
0.518209 0.328713 0.140190
0.544325 0.329106 0.141343
0.570431 0.329363 0.142472
0.596541 0.329526 0.143601
0.622673 0.329634 0.144746
0.648839 0.329717 0.145924
0.675054 0.329803 0.147150
0.701328 0.329915 0.148435
0.728063 0.330059 0.149758
0.764820 0.329864 0.150381
0.794725 0.330038 0.151645
0.819083 0.330531 0.153427
0.838882 0.331298 0.155634
0.854904 0.332302 0.158194
0.867791 0.333515 0.161049
0.878078 0.334911 0.164152
0.152467 0.323702 0.124514
0.177516 0.323870 0.131561
0.194171 0.324058 0.132273
0.212390 0.324383 0.132868
0.230815 0.324883 0.133203
0.247962 0.325618 0.133047
0.263288 0.326624 0.132386
0.280193 0.328300 0.134864
0.300030 0.330521 0.141283
0.320967 0.332564 0.147722
0.334363 0.325949 0.151230
0.361557 0.332205 0.152929
0.388774 0.338585 0.152741
0.416153 0.344660 0.152225
0.443366 0.349823 0.151553
0.470053 0.353591 0.150674
0.496425 0.356119 0.150109
0.522658 0.357682 0.150128
0.548881 0.358578 0.150828
0.575141 0.359099 0.151992
0.601379 0.359450 0.153134
0.627610 0.359682 0.154259
0.653846 0.359832 0.155384
0.680102 0.359931 0.156525
0.706389 0.360005 0.157695
0.733336 0.360053 0.158858
0.769910 0.359730 0.159304
0.799645 0.359720 0.160374
0.823852 0.359999 0.161960
0.843517 0.360534 0.163978
0.859422 0.361298 0.166358
0.872207 0.362264 0.169043
0.882405 0.363411 0.171985
0.165152 0.350932 0.133578
0.189129 0.351086 0.141116
0.205113 0.351242 0.141838
0.223030 0.351518 0.142487
0.241677 0.351943 0.142960
0.259726 0.352562 0.143078
0.276138 0.353423 0.142664
0.291490 0.354611 0.142446
0.309449 0.356525 0.146304
0.329789 0.358814 0.153192
0.350916 0.360821 0.159438
0.363721 0.353469 0.162853
0.391061 0.359756 0.164671
0.418397 0.366164 0.164581
0.445879 0.372367 0.164051
0.473357 0.377896 0.163482
0.500329 0.382162 0.162582
0.526931 0.385196 0.161816
0.553331 0.387207 0.161500
0.579661 0.388452 0.161783
0.606018 0.389176 0.162706
0.632389 0.389636 0.163872
0.658741 0.389952 0.165007
0.685087 0.390164 0.166127
0.711440 0.390303 0.167249
0.738683 0.390363 0.168317
0.775132 0.390043 0.168670
0.804745 0.389962 0.169612
0.828838 0.390122 0.171054
0.848402 0.390510 0.172923
0.864217 0.391108 0.175155
0.876923 0.391895 0.177695
0.887053 0.392852 0.180498
0.177916 0.378298 0.142707
0.200979 0.378444 0.150740
0.216272 0.378573 0.151461
0.233789 0.378810 0.152146
0.252419 0.379177 0.152706
0.271008 0.379704 0.153017
0.288458 0.380441 0.152900
0.304245 0.381411 0.152274
0.320196 0.382832 0.153068
0.339028 0.384927 0.158022
0.359737 0.387249 0.165174
0.381032 0.389219 0.171215
0.393227 0.381128 0.174549
0.420701 0.387447 0.176476
0.448150 0.393871 0.176487
0.475729 0.400176 0.175966
0.503401 0.405974 0.175454
0.530652 0.410685 0.174600
0.557491 0.414196 0.173714
0.584076 0.416659 0.173142
0.610536 0.418284 0.173075
0.636974 0.419294 0.173595
0.663454 0.419900 0.174669
0.689927 0.420312 0.175823
0.716384 0.420601 0.176951
0.743993 0.420762 0.177980
0.780363 0.420555 0.178316
0.809894 0.420498 0.179192
0.833910 0.420625 0.180541
0.853403 0.420942 0.182303
0.869154 0.421441 0.184420
0.881805 0.422111 0.186844
0.891887 0.422936 0.189532
0.190750 0.405790 0.151893
0.213045 0.405931 0.160426
0.227646 0.406039 0.161139
0.244701 0.406242 0.161846
0.263163 0.406562 0.162466
0.282007 0.407019 0.162907
0.300231 0.407652 0.163026
0.317033 0.408500 0.162683
0.332437 0.409578 0.162004
0.349334 0.411254 0.164140
0.368866 0.413481 0.169939
0.389853 0.415814 0.177209
0.411299 0.417745 0.183048
0.422868 0.408914 0.186312
0.450468 0.415268 0.188338
0.478022 0.421698 0.188452
0.505693 0.428084 0.187955
0.533495 0.434072 0.187449
0.561018 0.439176 0.186693
0.588096 0.443131 0.185753
0.614877 0.446034 0.184996
0.641487 0.448053 0.184645
0.668027 0.449386 0.184813
0.694576 0.450220 0.185542
0.721162 0.450745 0.186693
0.749198 0.451088 0.187731
0.785518 0.451084 0.188114
0.814997 0.451131 0.188977
0.838962 0.451297 0.190279
0.858408 0.451606 0.191972
0.874102 0.452068 0.194023
0.886662 0.452685 0.196409
0.896634 0.453445 0.199075
0.203648 0.433399 0.161130
0.225303 0.433538 0.170170
0.239226 0.433628 0.170869
0.255779 0.433803 0.171589
0.273979 0.434083 0.172250
0.292878 0.434484 0.172780
0.311599 0.435034 0.173072
0.329293 0.435772 0.172985
0.345509 0.436720 0.172444
0.361036 0.437961 0.172232
0.378832 0.439849 0.175569
0.398919 0.442171 0.182000
0.420119 0.444498 0.189285
0.441706 0.446391 0.194932
0.452635 0.436819 0.198135
0.480353 0.443209 0.200253
0.508006 0.449639 0.200469
0.535765 0.456089 0.200009
0.563650 0.462208 0.199469
0.591424 0.467652 0.198836
0.618740 0.472014 0.197896
0.645724 0.475337 0.197016
0.672495 0.477753 0.196439
0.699155 0.479428 0.196308
0.725785 0.480536 0.196691
0.754253 0.481218 0.197486
0.790484 0.481510 0.198041
0.819747 0.481761 0.199145
0.843418 0.482072 0.200713
0.862530 0.482486 0.202672
0.877894 0.483017 0.204960
0.890166 0.483668 0.207527
0.899890 0.484433 0.210330
0.216605 0.461117 0.170415
0.237735 0.461256 0.179967
0.251002 0.461332 0.180648
0.267031 0.461483 0.181373
0.284903 0.461729 0.182064
0.303724 0.462083 0.182656
0.322714 0.462567 0.183071
0.341086 0.463211 0.183190
0.358204 0.464050 0.182902
0.373949 0.465085 0.182201
0.390047 0.466535 0.182925
0.408628 0.468594 0.187276
0.429152 0.470981 0.194164
0.450523 0.473291 0.201397
0.472176 0.475084 0.206861
0.482518 0.464834 0.210013
0.510348 0.471263 0.212216
0.538095 0.477686 0.212532
0.565939 0.484187 0.212118
0.593898 0.490415 0.211556
0.621869 0.496125 0.211008
0.649419 0.500857 0.210113
0.676608 0.504577 0.209162
0.703503 0.507388 0.208502
0.730145 0.509436 0.208370
0.758754 0.510912 0.208665
0.794365 0.511851 0.209281
0.823147 0.512426 0.210950
0.846388 0.512962 0.212972
0.865124 0.513535 0.215279
0.880164 0.514174 0.217833
0.892162 0.514892 0.220599
0.901657 0.515694 0.223550
0.229617 0.488937 0.179743
0.250322 0.489078 0.189813
0.262960 0.489142 0.190474
0.278455 0.489272 0.191199
0.295955 0.489488 0.191910
0.314608 0.489804 0.192547
0.333699 0.490234 0.193050
0.352529 0.490802 0.193325
0.370428 0.491541 0.193262
0.387005 0.492471 0.192791
0.402510 0.493604 0.192118
0.419425 0.495278 0.194010
0.438674 0.497473 0.199199
0.459542 0.499902 0.206405
0.481055 0.502186 0.213540
0.501552 0.502690 0.218785
0.512511 0.492953 0.221943
0.540447 0.499421 0.224224
0.568284 0.505835 0.224638
0.596207 0.512376 0.224276
0.624238 0.518695 0.223707
0.652293 0.524608 0.223347
0.679877 0.529690 0.222955
0.706933 0.533818 0.222621
0.733564 0.537061 0.222569
0.762369 0.539664 0.222740
0.797328 0.541682 0.223123
0.825488 0.542880 0.224677
0.848252 0.543745 0.226998
0.866608 0.544520 0.229692
0.881328 0.545302 0.232537
0.893062 0.546118 0.235520
0.902340 0.546981 0.238627
0.242680 0.516854 0.189111
0.262627 0.516990 0.199196
0.275089 0.517050 0.200344
0.290049 0.517163 0.201064
0.307146 0.517354 0.201788
0.325567 0.517636 0.202459
0.344641 0.518021 0.203025
0.363744 0.518527 0.203417
0.382246 0.519182 0.203537
0.399628 0.520012 0.203292
0.415743 0.521024 0.202667
0.431428 0.522305 0.202473
0.449122 0.524169 0.205421
0.468930 0.526470 0.211289
0.490071 0.528923 0.218703
0.511706 0.531177 0.225711
0.531028 0.530383 0.230752
0.542607 0.521168 0.233920
0.570644 0.527677 0.236274
0.598551 0.534078 0.236839
0.626443 0.540647 0.236890
0.654287 0.547050 0.237017
0.682048 0.553134 0.237524
0.709397 0.558565 0.238114
0.736148 0.563103 0.238641
0.765295 0.567063 0.239126
0.799716 0.570453 0.239666
0.827298 0.572564 0.241162
0.849517 0.574031 0.243344
0.867416 0.575182 0.245995
0.881786 0.576186 0.248964
0.893256 0.577134 0.252145
0.902328 0.578082 0.255418
0.255791 0.544860 0.198517
0.274528 0.544987 0.207986
0.287376 0.545052 0.210256
0.301805 0.545150 0.210966
0.318481 0.545319 0.211699
0.336624 0.545572 0.212395
0.355596 0.545918 0.213008
0.374831 0.546373 0.213486
0.393757 0.546957 0.213749
0.411830 0.547697 0.213704
0.428714 0.548612 0.213292
0.444462 0.549696 0.212541
0.460696 0.551169 0.213227
0.479094 0.553192 0.217100
0.499366 0.555575 0.223510
0.520727 0.558031 0.231104
0.542461 0.560237 0.238156
0.560569 0.558130 0.243113
0.572771 0.549463 0.246158
0.600784 0.555990 0.249124
0.628534 0.562370 0.250598
0.656169 0.568971 0.251598
0.683668 0.575470 0.252657
0.711008 0.581710 0.254063
0.738003 0.587472 0.255708
0.767665 0.592889 0.257057
0.801697 0.597816 0.258263
0.828807 0.601038 0.260026
0.850558 0.603294 0.262277
0.868031 0.605000 0.264896
0.882033 0.606393 0.267779
0.893196 0.607611 0.270848
0.902030 0.608734 0.274051
0.268947 0.572953 0.207957
0.286590 0.573071 0.216870
0.299810 0.573142 0.220207
0.313718 0.573227 0.220906
0.329959 0.573377 0.221642
0.347792 0.573603 0.222356
0.366602 0.573917 0.223006
0.385862 0.574328 0.223548
0.405060 0.574853 0.223921
0.423676 0.575516 0.224041
0.441284 0.576338 0.223838
0.457736 0.577322 0.223331
0.473365 0.578482 0.222777
0.490333 0.580128 0.224680
0.509371 0.582246 0.229668
0.530024 0.584643 0.236974
0.551514 0.587056 0.245173
0.573244 0.589207 0.252603
0.590027 0.585814 0.257419
0.602768 0.577738 0.260251
0.630596 0.584293 0.264158
0.658073 0.590681 0.266613
0.685349 0.597334 0.268610
0.712415 0.603940 0.270648
0.739252 0.610342 0.272999
0.769553 0.617113 0.275708
0.803366 0.623591 0.278143
0.830140 0.628026 0.280564
0.851524 0.631196 0.283156
0.868649 0.633580 0.285934
0.882342 0.635474 0.288867
0.893244 0.637057 0.291920
0.901866 0.638445 0.295067
0.282146 0.601128 0.217430
0.298796 0.601237 0.225840
0.312379 0.601315 0.230196
0.325780 0.601389 0.230881
0.341581 0.601522 0.231616
0.359088 0.601721 0.232361
0.377724 0.601989 0.233106
0.396984 0.602334 0.233822
0.416395 0.602773 0.234465
0.435471 0.603326 0.234965
0.453755 0.604019 0.235240
0.470948 0.604872 0.235232
0.487049 0.605883 0.234951
0.502895 0.607144 0.235261
0.520528 0.608922 0.238557
0.540047 0.611114 0.244740
0.560910 0.613532 0.252913
0.582386 0.615929 0.261649
0.603996 0.618059 0.269439
0.619356 0.613421 0.273898
0.632532 0.605970 0.276577
0.660068 0.612578 0.281451
0.687175 0.619003 0.284907
0.714011 0.625722 0.287923
0.740571 0.632447 0.290961
0.771080 0.639951 0.294459
0.804763 0.647767 0.298514
0.831349 0.653406 0.302002
0.852487 0.657539 0.305238
0.869359 0.660671 0.308398
0.882818 0.663137 0.311547
0.893517 0.665154 0.314709
0.901973 0.666868 0.317891
0.295482 0.629338 0.227061
0.311321 0.629400 0.235139
0.325355 0.629444 0.240615
0.338350 0.629469 0.241433
0.353814 0.629533 0.242373
0.371083 0.629652 0.243386
0.389574 0.629837 0.244435
0.408800 0.630097 0.245489
0.428318 0.630447 0.246509
0.447687 0.630904 0.247435
0.466468 0.631492 0.248187
0.484296 0.632233 0.248692
0.501019 0.633135 0.248920
0.516761 0.634189 0.248914
0.533054 0.635609 0.250494
0.551207 0.637519 0.255128
0.571033 0.639794 0.262406
0.591949 0.642250 0.271347
0.613287 0.644659 0.280553
0.634676 0.646798 0.288678
0.648532 0.640953 0.292556
0.662048 0.634155 0.295155
0.689200 0.640839 0.300998
0.715859 0.647326 0.305451
0.742189 0.654129 0.309479
0.772855 0.662096 0.313843
0.805955 0.670542 0.318785
0.832433 0.677207 0.323591
0.853453 0.682267 0.327766
0.870175 0.686156 0.331537
0.883485 0.689222 0.335077
0.894051 0.691707 0.338482
0.902395 0.693780 0.341805
0.309908 0.657172 0.238083
0.325055 0.657166 0.245972
0.339559 0.657161 0.252614
0.352140 0.657141 0.253602
0.367222 0.657153 0.254761
0.384174 0.657214 0.256037
0.402431 0.657337 0.257386
0.421515 0.657534 0.258773
0.441008 0.657818 0.260161
0.460507 0.658204 0.261498
0.479604 0.658713 0.262712
0.497921 0.659365 0.263724
0.515207 0.660175 0.264476
0.531435 0.661142 0.264968
0.546981 0.662285 0.265516
0.563745 0.663881 0.268483
0.582269 0.665927 0.274370
0.602242 0.668296 0.282630
0.623074 0.670811 0.292234
0.644170 0.673256 0.301842
0.665253 0.675435 0.310274
0.677536 0.668418 0.313348
0.691310 0.662294 0.315950
0.718006 0.669075 0.322739
0.744156 0.675647 0.328161
0.775039 0.683823 0.333719
0.807488 0.692585 0.339513
0.833488 0.699695 0.344927
0.854386 0.705463 0.350051
0.871063 0.710052 0.354639
0.884310 0.713696 0.358737
0.894812 0.716645 0.362514
0.903102 0.719083 0.366079
0.325689 0.684512 0.250850
0.340146 0.684463 0.258542
0.355080 0.684422 0.266307
0.367217 0.684375 0.267455
0.381866 0.684353 0.268822
0.398437 0.684375 0.270350
0.416381 0.684457 0.271989
0.435231 0.684613 0.273698
0.454586 0.684853 0.275441
0.474075 0.685192 0.277171
0.493325 0.685645 0.278823
0.511971 0.686233 0.280321
0.529712 0.686971 0.281593
0.546411 0.687866 0.282606
0.562141 0.688909 0.283387
0.577731 0.690200 0.284867
0.594867 0.691974 0.289164
0.613617 0.694163 0.296194
0.633596 0.696641 0.305314
0.654230 0.699234 0.315473
0.674998 0.701738 0.325414
0.695704 0.703982 0.334115
0.706362 0.695825 0.336178
0.720324 0.690391 0.338868
0.746508 0.697287 0.346556
0.777670 0.705356 0.353754
0.809515 0.714174 0.360619
0.835021 0.721522 0.366640
0.855523 0.727565 0.372128
0.872004 0.732538 0.377193
0.885222 0.736649 0.381888
0.895727 0.740020 0.386150
0.904016 0.742798 0.390044
0.342838 0.711348 0.265388
0.356613 0.711276 0.272873
0.371280 0.711216 0.280917
0.383606 0.711155 0.283005
0.397783 0.711116 0.284566
0.413916 0.711118 0.286331
0.431478 0.711178 0.288244
0.450015 0.711311 0.290260
0.469139 0.711528 0.292340
0.488501 0.711841 0.294439
0.507761 0.712263 0.296501
0.526579 0.712810 0.298455
0.544643 0.713499 0.300225
0.561743 0.714340 0.301755
0.577841 0.715331 0.303037
0.593095 0.716463 0.304140
0.608922 0.717953 0.306867
0.626320 0.719910 0.312402
0.645164 0.722252 0.320448
0.665028 0.724852 0.330296
0.685370 0.727540 0.340902
0.705743 0.730126 0.351101
0.726018 0.732456 0.360026
0.735012 0.723185 0.360897
0.749103 0.718452 0.363759
0.780785 0.726983 0.373608
0.812061 0.735514 0.381802
0.837111 0.742907 0.388562
0.857248 0.749103 0.394485
0.873441 0.754250 0.399806
0.886435 0.758526 0.404647
0.896819 0.762092 0.409091
0.905073 0.765085 0.413208
0.361344 0.737681 0.281691
0.374446 0.737604 0.288960
0.388454 0.737540 0.296798
0.401306 0.737479 0.300238
0.414979 0.737437 0.301974
0.430629 0.737435 0.303956
0.447753 0.737492 0.306122
0.465909 0.737620 0.308424
0.484721 0.737832 0.310817
0.503858 0.738138 0.313260
0.523008 0.738550 0.315700
0.541857 0.739081 0.318074
0.560105 0.739744 0.320306
0.577504 0.740551 0.322330
0.593934 0.741506 0.324110
0.609437 0.742602 0.325662
0.624401 0.743868 0.327352
0.640462 0.745571 0.331340
0.658012 0.747718 0.337993
0.676831 0.750224 0.346915
0.696480 0.752959 0.357355
0.716458 0.755759 0.368295
0.736388 0.758444 0.378674
0.756192 0.760880 0.387764
0.763495 0.750511 0.387303
0.784271 0.748302 0.392537
0.815177 0.757103 0.402924
0.839806 0.764443 0.410719
0.859618 0.770811 0.417319
0.875561 0.776215 0.423110
0.888366 0.780775 0.428295
0.898610 0.784629 0.433001
0.906764 0.787901 0.437324
0.384791 0.769600 0.302520
0.397222 0.769540 0.309593
0.410561 0.769496 0.317241
0.423872 0.769460 0.322006
0.437004 0.769442 0.323952
0.452120 0.769469 0.326193
0.468746 0.769558 0.328664
0.486455 0.769723 0.331308
0.504882 0.769976 0.334080
0.523713 0.770325 0.336934
0.542661 0.770782 0.339824
0.561447 0.771354 0.342692
0.579793 0.772054 0.345471
0.597449 0.772892 0.348088
0.614235 0.773872 0.350491
0.630094 0.774995 0.352660
0.645111 0.776251 0.354625
0.659863 0.777713 0.357044
0.675826 0.779633 0.361884
0.693154 0.781989 0.369220
0.711619 0.784699 0.378647
0.730818 0.787646 0.389466
