luts/CoastalKodachrome_Soft.cube
TITLE "Coastal Kodachrome Soft"
# Film-look LUT generated by generate_lut.py
# Input  : Rec.709 / sRGB display-referred
# Output : Rec.709 / sRGB display-referred
# Strength: 65%
LUT_3D_SIZE 9
DOMAIN_MIN 0.0 0.0 0.0
DOMAIN_MAX 1.0 1.0 1.0
0.036337 0.043475 0.042544
0.141010 0.046481 0.043226
0.250416 0.050021 0.043970
0.361768 0.054699 0.045268
0.474603 0.065364 0.052144
0.588431 0.076793 0.060253
0.703043 0.088437 0.068585
0.826388 0.100157 0.076681
0.910628 0.112440 0.086804
0.056725 0.150549 0.052125
0.149303 0.151018 0.057435
0.259716 0.160860 0.055793
0.369294 0.161822 0.057847
0.479876 0.163066 0.061929
0.592062 0.166230 0.067428
0.705606 0.171274 0.074007
0.828196 0.177694 0.080888
0.911979 0.185877 0.090297
0.082909 0.262812 0.069361
0.178857 0.263910 0.073764
0.266994 0.263897 0.083357
0.380561 0.278350 0.083175
0.491947 0.281809 0.084268
0.603280 0.282250 0.087263
0.715162 0.282716 0.090781
0.835792 0.283836 0.094662
0.918229 0.287498 0.102144
0.115645 0.377143 0.092759
0.207822 0.377715 0.099259
0.295628 0.380091 0.099494
0.386848 0.378983 0.113457
0.502210 0.395133 0.114045
0.615599 0.403134 0.112499
0.728150 0.404640 0.115018
0.848292 0.404657 0.117352
0.929727 0.406159 0.123196
0.149251 0.492809 0.116833
0.236121 0.493167 0.124741
0.328278 0.494502 0.125620
0.416388 0.498357 0.129479
0.508132 0.495419 0.144263
0.624505 0.512152 0.145410
0.739317 0.524090 0.144670
0.857614 0.528434 0.147549
0.936521 0.530538 0.155107
0.183395 0.609483 0.141330
0.265777 0.609739 0.150551
0.358157 0.610552 0.152402
0.447832 0.612574 0.152718
0.539592 0.617546 0.164394
0.629896 0.612630 0.179775
0.743871 0.629841 0.189124
0.860367 0.646150 0.198405
0.936283 0.652214 0.206629
0.222845 0.724876 0.172502
0.302309 0.724725 0.184968
0.392440 0.724993 0.190021
0.485268 0.726275 0.195146
0.570799 0.729169 0.199463
0.664240 0.735401 0.221587
0.749417 0.729494 0.236444
0.863461 0.749417 0.256416
0.938297 0.759805 0.268585
0.278879 0.839361 0.223902
0.354645 0.839400 0.238837
0.439727 0.839856 0.246366
0.530595 0.841257 0.255181
0.617217 0.843856 0.263019
0.699490 0.848300 0.273442
0.790163 0.856087 0.300549
0.872191 0.850358 0.314465
0.945408 0.860515 0.329357
0.321287 0.920062 0.267567
0.393978 0.920454 0.283471
0.473943 0.921202 0.291181
0.561130 0.922868 0.300577
0.646785 0.925571 0.309573
0.726071 0.929362 0.316958
0.810957 0.936526 0.337488
0.902408 0.945419 0.364312
0.952379 0.933991 0.363598
0.040286 0.053378 0.144402
0.144602 0.055685 0.142097
0.256357 0.056421 0.145850
0.366357 0.055112 0.139686
0.477370 0.060089 0.134990
0.590017 0.067480 0.133209
0.703916 0.075659 0.133297
0.826765 0.083883 0.133969
0.910725 0.094482 0.139216
0.038757 0.155637 0.146357
0.149440 0.153897 0.149761
0.253693 0.151268 0.144216
0.364516 0.153701 0.143666
0.476889 0.157535 0.144422
0.590363 0.162691 0.146418
0.704701 0.169027 0.149526
0.827781 0.176289 0.153193
0.911737 0.184856 0.159668
0.056869 0.265821 0.147282
0.172694 0.264229 0.161037
0.267460 0.266612 0.167323
0.378271 0.275440 0.162701
0.487732 0.274887 0.160452
0.598609 0.274738 0.159495
0.711023 0.275945 0.160284
0.832533 0.278337 0.162090
0.915546 0.282936 0.167543
0.085703 0.378149 0.151992
0.198871 0.378154 0.176589
0.295660 0.379804 0.177358
0.387173 0.381026 0.188281
0.501772 0.395758 0.185724
0.613502 0.399616 0.182716
0.725259 0.399791 0.182534
0.845001 0.399327 0.182208
0.926526 0.401050 0.186090
0.111677 0.493286 0.158723
0.226103 0.493579 0.193571
0.325773 0.494499 0.196999
0.415206 0.497957 0.198028
0.508377 0.497011 0.212506
0.624560 0.513367 0.211715
0.738177 0.522862 0.208997
0.856015 0.525280 0.210651
0.934820 0.527122 0.216164
0.153459 0.609823 0.183716
0.254899 0.610094 0.212360
0.354177 0.610654 0.218351
0.447856 0.612451 0.219300
0.538494 0.617312 0.227719
0.630074 0.613906 0.243342
0.743844 0.631000 0.250997
0.859712 0.645991 0.257970
0.935388 0.651193 0.264700
0.197927 0.725375 0.213993
0.290813 0.725058 0.240261
0.388478 0.725125 0.251330
0.483942 0.726256 0.256752
0.570921 0.729010 0.260357
0.663526 0.735362 0.280303
0.749670 0.730607 0.295595
0.863537 0.750498 0.313951
0.938300 0.760718 0.325065
0.258727 0.839665 0.264488
0.343003 0.839593 0.288101
0.436273 0.839991 0.303363
0.528792 0.841321 0.312277
0.617223 0.843890 0.320316
0.699369 0.848210 0.329177
0.789783 0.856182 0.355226
0.872573 0.851375 0.369644
0.945722 0.861502 0.383696
0.304790 0.920097 0.308168
0.382015 0.920433 0.328414
0.470953 0.921303 0.345356
0.559387 0.922927 0.354834
0.646388 0.925620 0.363976
0.726414 0.929396 0.371072
0.810663 0.936503 0.390005
0.902232 0.945666 0.416715
0.952786 0.934871 0.416364
0.046532 0.068200 0.252234
0.148430 0.055315 0.251692
0.257907 0.074337 0.247367
0.372925 0.083027 0.255666
0.486152 0.082109 0.253684
0.597920 0.082148 0.246460
0.710199 0.085413 0.239864
0.831447 0.090862 0.234493
0.914494 0.100276 0.235393
0.048329 0.171788 0.257175
0.154090 0.164648 0.256115
0.260567 0.166957 0.252948
0.373488 0.165213 0.255677
0.483389 0.159214 0.247601
0.594788 0.158061 0.240994
0.707736 0.160105 0.236729
0.829811 0.163259 0.233213
0.913241 0.169869 0.234888
0.043982 0.273007 0.255393
0.150878 0.274023 0.261072
0.267076 0.269072 0.262104
0.368837 0.262303 0.252309
0.480532 0.263904 0.250879
0.593576 0.266392 0.250270
0.707592 0.269745 0.250467
0.830287 0.273851 0.251045
0.913748 0.279243 0.254465
0.069406 0.385758 0.255303
0.167053 0.382914 0.258563
0.290058 0.380112 0.272211
0.387831 0.384406 0.280119
0.498589 0.392334 0.273475
0.607545 0.390409 0.268942
0.718259 0.389090 0.265742
0.838243 0.388818 0.263624
0.920252 0.391270 0.265891
0.103228 0.497446 0.259188
0.187804 0.495511 0.260081
0.315632 0.495118 0.286160
0.414501 0.497326 0.286727
0.508895 0.499928 0.299315
0.624088 0.514642 0.295643
0.735090 0.518234 0.291136
0.851958 0.517866 0.290064
0.930595 0.519153 0.292772
0.133288 0.611828 0.263871
0.208099 0.611201 0.263082
0.342854 0.611297 0.302458
0.445590 0.612361 0.305072
0.536488 0.616697 0.308639
0.630490 0.616446 0.325150
0.743804 0.633177 0.330021
0.857936 0.644443 0.332695
0.933185 0.647850 0.337381
0.164706 0.726757 0.272944
0.240322 0.726236 0.279278
0.377232 0.725714 0.328738
0.479343 0.726390 0.335503
0.571648 0.728887 0.339731
0.662030 0.735196 0.354231
0.750261 0.732963 0.370814
0.863721 0.752731 0.386134
0.938185 0.762395 0.395188
0.212749 0.840732 0.301016
0.300313 0.840264 0.325182
0.424869 0.840429 0.371785
0.523842 0.841550 0.383621
0.616342 0.844000 0.392174
0.699484 0.848081 0.398942
0.788944 0.856341 0.422159
0.873444 0.853608 0.437866
0.946435 0.863686 0.450308
0.265900 0.920502 0.344507
0.345709 0.920499 0.365305
0.459214 0.921504 0.407024
0.554741 0.923102 0.421195
0.644758 0.925738 0.430661
0.727366 0.929568 0.438021
0.810027 0.936401 0.453081
0.901855 0.946219 0.479616
0.953719 0.936852 0.480136
0.055548 0.088755 0.362195
0.148108 0.065352 0.360932
0.267933 0.078731 0.361386
0.373426 0.099285 0.354968
0.489693 0.110925 0.364132
0.606130 0.112542 0.367756
0.719858 0.110892 0.362873
0.840704 0.109749 0.354134
0.922976 0.115490 0.351237
0.063114 0.190293 0.365650
0.160163 0.178527 0.365189
0.265542 0.165597 0.364303
0.375420 0.183512 0.359361
0.491740 0.188995 0.367722
0.605672 0.183950 0.365861
0.717942 0.179228 0.358388
0.838332 0.176725 0.349529
0.920655 0.180925 0.347394
0.058001 0.289595 0.373533
0.163007 0.288062 0.372138
0.270547 0.278288 0.370136
0.378905 0.281148 0.366082
0.492345 0.277583 0.367830
0.601793 0.269223 0.358197
0.713221 0.265695 0.350384
0.834119 0.264708 0.343949
0.916798 0.267889 0.343389
0.059378 0.392624 0.367381
0.153227 0.393375 0.371860
0.271300 0.394672 0.378403
0.386852 0.386325 0.376451
0.485601 0.375547 0.362558
0.597867 0.376681 0.360638
0.711439 0.378582 0.359417
0.833576 0.381015 0.358366
0.916300 0.384566 0.360046
0.082590 0.507495 0.365866
0.169902 0.506091 0.369332
0.283084 0.501434 0.372507
0.409435 0.497469 0.385595
0.509673 0.503690 0.395191
0.620065 0.510600 0.386958
0.727993 0.507389 0.380967
0.844103 0.504888 0.376394
0.923105 0.506079 0.377311
0.117516 0.619600 0.368904
0.197099 0.617596 0.370833
0.300460 0.613997 0.372046
0.435506 0.613051 0.399731
0.535127 0.615724 0.401495
0.631176 0.619885 0.417404
0.743210 0.634954 0.418353
0.854330 0.638944 0.416540
0.929158 0.640481 0.419317
0.156932 0.731207 0.376561
0.229717 0.729541 0.378195
0.324398 0.727527 0.379384
0.468274 0.727157 0.423929
0.570303 0.728887 0.429751
0.659947 0.734667 0.437881
0.751211 0.736292 0.456549
0.864004 0.755625 0.468052
0.937387 0.763523 0.473783
0.210975 0.842915 0.398883
0.277357 0.842042 0.400658
0.366877 0.841226 0.406675
0.513455 0.842218 0.464207
0.612493 0.844300 0.473519
0.700610 0.848220 0.480520
0.787654 0.856390 0.497847
0.874786 0.856853 0.515719
0.947516 0.866871 0.526162
0.254865 0.921944 0.425114
0.316821 0.921549 0.426832
0.408026 0.921380 0.441366
0.545139 0.923569 0.496314
0.640382 0.925979 0.506356
0.727870 0.929789 0.514577
0.809215 0.936123 0.524861
0.901332 0.947021 0.551055
0.955152 0.939799 0.552930
0.067423 0.112871 0.473553
0.148404 0.082204 0.471876
0.264740 0.083356 0.472103
0.388416 0.105885 0.472328
0.490317 0.125303 0.463831
0.607444 0.138603 0.473256
0.725883 0.143079 0.480402
0.849800 0.140814 0.478561
0.932724 0.143972 0.476309
0.076524 0.208272 0.476282
0.167156 0.194276 0.475878
0.264706 0.170190 0.474415
0.386936 0.184613 0.474484
0.491885 0.202445 0.467371
0.609052 0.211587 0.476528
0.726574 0.211123 0.481103
0.848966 0.205324 0.476199
0.931342 0.206474 0.473238
0.078796 0.306752 0.481956
0.175753 0.305504 0.480728
0.277421 0.292477 0.480051
0.385090 0.279875 0.478697
0.494750 0.296683 0.473236
0.612133 0.300989 0.481741
0.726200 0.293981 0.479222
0.845989 0.285630 0.469812
0.927556 0.285489 0.466252
0.071331 0.411341 0.491686
0.164322 0.409171 0.491063
0.280949 0.406588 0.488872
0.389197 0.394060 0.485671
0.498843 0.397472 0.480780
0.612305 0.392254 0.481245
0.721108 0.382308 0.470158
0.839833 0.376785 0.460421
0.921283 0.377608 0.458218
0.075495 0.513674 0.480676
0.159468 0.514256 0.484265
0.270819 0.515366 0.490217
0.394538 0.516730 0.497191
0.508057 0.504961 0.492131
0.603609 0.490289 0.474259
0.716173 0.491006 0.471919
0.836497 0.492709 0.470300
0.916865 0.495536 0.471490
0.096920 0.630210 0.477902
0.175881 0.629575 0.481113
0.283952 0.627144 0.485997
0.403622 0.620489 0.488426
0.530712 0.615616 0.501576
0.632132 0.623935 0.514353
0.738689 0.630463 0.507848
0.846839 0.626625 0.502035
0.921302 0.626836 0.502074
0.139302 0.740546 0.483200
0.214074 0.738807 0.485877
0.315606 0.734982 0.490177
0.426376 0.730134 0.492865
0.561641 0.729663 0.523263
0.658355 0.733654 0.528052
0.752523 0.740316 0.547427
0.863350 0.757255 0.553304
0.934605 0.761265 0.554984
0.201419 0.849222 0.500820
0.269980 0.847769 0.503538
0.361376 0.845080 0.508219
0.461860 0.843212 0.512123
0.603112 0.845129 0.559043
0.700029 0.848503 0.567402
0.785915 0.855996 0.578213
0.876531 0.860809 0.598840
0.948868 0.870715 0.607106
0.249393 0.926610 0.522466
0.313133 0.925616 0.524944
0.396849 0.923904 0.529439
0.490453 0.923192 0.534001
0.631194 0.926557 0.586663
0.725691 0.930030 0.595884
0.808845 0.935704 0.602986
0.900688 0.947923 0.627686
0.956985 0.943430 0.631288
0.081486 0.136546 0.585820
0.149721 0.100194 0.583928
0.264603 0.096064 0.583595
0.385924 0.107908 0.584153
0.509295 0.133379 0.584225
0.608234 0.151768 0.573614
0.726067 0.166218 0.583151
0.853856 0.172347 0.592437
0.938917 0.176970 0.595453
0.089673 0.226117 0.588230
0.175213 0.211829 0.587705
0.264472 0.180568 0.585820
0.384085 0.183750 0.586101
0.508457 0.206409 0.585861
0.609506 0.223359 0.576529
0.727333 0.234868 0.585917
0.854823 0.237394 0.593998
0.939154 0.239368 0.595656
0.096948 0.325931 0.592388
0.185664 0.322652 0.591808
0.283524 0.306668 0.591297
0.383986 0.282246 0.589581
0.507272 0.297365 0.589152
0.611956 0.313784 0.581738
0.729930 0.321670 0.591008
0.855905 0.318691 0.595308
0.938685 0.317465 0.594386
0.093015 0.425699 0.600363
0.182483 0.424967 0.599238
0.292612 0.423211 0.597276
0.396056 0.408108 0.596243
0.506120 0.396866 0.594363
0.615415 0.412662 0.588492
0.733704 0.416198 0.597103
0.854817 0.406361 0.592543
0.935311 0.403274 0.588698
0.085573 0.535631 0.611019
0.168794 0.533470 0.610791
0.279926 0.530201 0.609877
0.401827 0.526565 0.606814
0.509229 0.511150 0.602263
0.619819 0.515219 0.596549
0.732178 0.508489 0.595415
0.845902 0.496517 0.581852
0.924113 0.495012 0.577928
0.092139 0.635767 0.594937
0.169174 0.636120 0.597823
0.274756 0.636762 0.603077
0.395486 0.637747 0.609743
0.521866 0.639002 0.617183
0.630085 0.624647 0.609543
0.720294 0.606783 0.588441
0.834946 0.608139 0.587035
0.911712 0.610812 0.588415
0.124054 0.749991 0.592168
0.197742 0.749408 0.595383
0.299549 0.747973 0.601383
0.416290 0.744837 0.607815
0.533625 0.737410 0.610107
0.655022 0.733501 0.623827
0.754157 0.744837 0.640432
0.858019 0.751376 0.636046
0.927321 0.750875 0.635080
0.187125 0.858414 0.604441
0.256322 0.857319 0.607491
0.350586 0.854908 0.613283
0.457718 0.851157 0.619563
0.564646 0.847168 0.623430
0.693126 0.849327 0.655230
0.784563 0.855059 0.662468
0.878621 0.865271 0.684495
0.950334 0.874848 0.690376
0.238222 0.934609 0.621583
0.302926 0.933690 0.624369
0.389607 0.931680 0.629843
0.488670 0.928820 0.636049
0.588897 0.926806 0.640558
0.718104 0.930642 0.678882
0.809634 0.935679 0.686892
0.899760 0.948633 0.706926
0.959142 0.947539 0.712746
0.095957 0.160465 0.698853
0.156845 0.123090 0.696973
0.264840 0.112821 0.696128
0.383226 0.114836 0.696506
0.508972 0.135024 0.696826
0.630608 0.160910 0.696915
0.726977 0.178578 0.684139
0.853628 0.194212 0.694584
0.939178 0.202943 0.700885
0.103169 0.244740 0.700986
0.184261 0.230904 0.700417
0.264477 0.193056 0.698247
0.382977 0.189686 0.698106
0.507267 0.204865 0.698438
0.630072 0.229463 0.698208
0.728035 0.245844 0.686582
0.854635 0.259232 0.696920
0.940085 0.265883 0.702975
0.112778 0.344821 0.704325
0.194789 0.339480 0.704221
0.290290 0.322109 0.703563
0.383612 0.290373 0.701443
0.504923 0.294561 0.701626
0.629329 0.316887 0.700873
0.730170 0.332380 0.691240
0.856735 0.342674 0.701493
0.941920 0.346569 0.707080
0.113794 0.444348 0.710665
0.198243 0.443618 0.709681
0.301544 0.439907 0.708638
0.402919 0.422660 0.707988
0.504923 0.398104 0.705977
0.628683 0.413579 0.704960
0.733154 0.428998 0.697379
0.858125 0.436464 0.706860
0.940733 0.437883 0.710534
0.106773 0.547225 0.720131
0.188367 0.546194 0.719354
0.296683 0.544759 0.717541
0.412842 0.542331 0.714561
0.516072 0.525131 0.713107
0.627905 0.515567 0.710372
0.734926 0.531010 0.703392
0.856476 0.534494 0.711342
0.934608 0.531752 0.710410
0.103960 0.660776 0.730031
0.180582 0.658667 0.729682
0.285691 0.655045 0.728824
0.405483 0.651042 0.727063
0.528104 0.646820 0.722949
0.631462 0.629857 0.716986
0.738213 0.635200 0.711833
0.849516 0.626608 0.708178
0.922403 0.621831 0.702580
0.124215 0.754414 0.708123
0.196613 0.754435 0.710483
0.296480 0.754728 0.715273
0.412035 0.755725 0.721924
0.533418 0.757785 0.730021
0.653810 0.758470 0.737495
0.752170 0.745240 0.729550
0.838056 0.725265 0.706282
0.910679 0.727316 0.707325
0.178306 0.866410 0.708771
0.246576 0.866162 0.711840
0.340050 0.865745 0.718295
0.448774 0.865049 0.726622
0.561932 0.862892 0.734167
0.669584 0.856146 0.736114
0.781720 0.855080 0.750990
0.880906 0.869997 0.771001
0.950900 0.877772 0.773497
0.227762 0.943146 0.721795
0.292263 0.942844 0.724719
0.379409 0.942187 0.730786
0.481158 0.940959 0.738505
0.587250 0.938240 0.745286
0.689085 0.933337 0.748044
0.805508 0.935874 0.771277
0.897645 0.948161 0.786337
0.961561 0.951992 0.795829
0.110775 0.185065 0.815606
0.176603 0.157928 0.814210
0.265126 0.130949 0.812552
0.383066 0.128003 0.812416
0.505069 0.138627 0.813024
0.632461 0.162810 0.813072
0.752708 0.188302 0.813181
0.854404 0.206870 0.798420
0.939035 0.219602 0.804337
0.117155 0.264713 0.817486
0.194363 0.251635 0.816909
0.265024 0.207121 0.814484
0.383160 0.201624 0.813910
0.503877 0.206889 0.814404
0.631192 0.228561 0.814376
0.752303 0.253268 0.814226
0.855255 0.270735 0.800480
0.939737 0.282001 0.806293
0.127351 0.363798 0.820412
0.204630 0.357194 0.820417
0.297879 0.339151 0.819646
0.383038 0.300441 0.817231
0.503298 0.297359 0.817078
0.628960 0.313360 0.817098
0.751705 0.337135 0.816429
0.856954 0.353523 0.804558
0.940059 0.363184 0.809599
0.132860 0.464595 0.825324
0.212240 0.463014 0.824656
0.309603 0.456635 0.824345
0.409302 0.437542 0.823526
0.504431 0.405295 0.821103
0.626746 0.409752 0.821077
0.750768 0.431827 0.819171
0.856292 0.448717 0.807886
0.936777 0.457302 0.812108
0.129635 0.565031 0.833081
0.208532 0.564500 0.831926
0.312674 0.563283 0.829480
0.422395 0.559103 0.827121
0.523773 0.540361 0.826349
0.626614 0.516283 0.824427
0.747858 0.532687 0.820079
0.853756 0.550384 0.810939
0.932034 0.557715 0.815507
0.128245 0.669611 0.839454
0.204133 0.668294 0.838253
0.307926 0.666261 0.835698
0.424686 0.664433 0.831944
0.540590 0.662117 0.827710
0.638243 0.644049 0.826033
0.746518 0.637035 0.822683
0.853496 0.654308 0.817110
0.930012 0.659957 0.822715
0.147497 0.780819 0.844021
0.218125 0.779148 0.843724
0.315004 0.776175 0.843193
0.427193 0.772979 0.842539
0.544862 0.770211 0.841433
0.660294 0.767190 0.838153
0.754590 0.750511 0.831445
0.859626 0.757811 0.829599
0.931721 0.758060 0.831906
0.182240 0.870231 0.820097
0.249523 0.870424 0.822311
0.341433 0.871149 0.827107
0.448817 0.872877 0.834107
0.562409 0.875938 0.842833
0.676998 0.880367 0.852904
0.785827 0.880024 0.859306
0.878555 0.869384 0.852769
0.933834 0.858376 0.840545
0.226819 0.948476 0.824121
0.290505 0.948753 0.826552
0.376352 0.949590 0.831932
0.477354 0.951270 0.839824
0.584983 0.953689 0.849367
0.693375 0.955490 0.858880
0.795630 0.949358 0.860348
0.891710 0.945970 0.865329
0.962393 0.954994 0.876544
0.124529 0.206644 0.909368
0.195213 0.189018 0.908393
0.266964 0.148598 0.906061
0.384133 0.143935 0.905457
0.503869 0.147890 0.905740
0.630633 0.167539 0.905723
0.756257 0.194211 0.905200
0.876098 0.217015 0.902326
0.939685 0.229075 0.887806
0.130115 0.282051 0.910912
0.204025 0.270130 0.910345
0.267172 0.221099 0.907689
0.383916 0.214726 0.906777
0.503534 0.214717 0.906801
0.629286 0.231431 0.906815
0.755545 0.256967 0.906128
0.876842 0.279248 0.904068
0.940299 0.290245 0.889459
0.139658 0.378489 0.913370
0.213703 0.371751 0.913286
0.304859 0.354018 0.912424
0.383758 0.310594 0.909692
0.503957 0.305465 0.908981
0.627088 0.314793 0.909054
0.754206 0.338054 0.908099
0.877371 0.360301 0.906609
0.939642 0.370253 0.891348
0.147152 0.479398 0.916979
0.222628 0.477158 0.916501
0.316390 0.469476 0.916336
0.414861 0.449960 0.915319
0.504574 0.412899 0.912504
0.625844 0.411754 0.912097
0.751940 0.430846 0.910060
0.872478 0.454574 0.904599
0.935776 0.463741 0.891752
0.147368 0.578886 0.921823
0.223619 0.578322 0.920291
0.323912 0.576662 0.917460
0.429304 0.570951 0.915310
0.529651 0.551953 0.914447
0.626845 0.521957 0.912957
0.747657 0.531281 0.908794
0.866377 0.555637 0.901682
0.930914 0.564193 0.892406
0.149536 0.679521 0.923961
0.223751 0.678678 0.922331
0.324813 0.677457 0.919026
0.437847 0.676339 0.914692
0.548796 0.673588 0.910907
0.644946 0.655485 0.909724
0.746270 0.637904 0.907067
0.863124 0.659206 0.901533
0.928871 0.667221 0.896418
0.165447 0.784813 0.925386
0.235295 0.783526 0.924628
0.331030 0.781339 0.923106
0.441844 0.779274 0.921031
0.557260 0.777942 0.918354
0.668755 0.776595 0.914729
0.759055 0.759905 0.911473
0.866143 0.762865 0.907471
0.932806 0.770172 0.906245
0.210850 0.896139 0.927774
0.276724 0.896495 0.929543
0.364776 0.896005 0.931865
0.466272 0.894077 0.933511
0.574316 0.892705 0.935864
0.684142 0.891960 0.938572
0.791787 0.890334 0.939491
0.880487 0.871672 0.925420
0.948259 0.874779 0.926644
0.233219 0.950097 0.905522
0.296259 0.950522 0.907559
0.381001 0.951720 0.912127
0.480912 0.954072 0.918984
0.587769 0.957714 0.927541
0.696698 0.962722 0.937458
0.807740 0.969284 0.948909
0.896689 0.954854 0.940877
0.960546 0.953820 0.940374
