luts/CoastalKodachrome.cube
TITLE "Coastal Kodachrome"
# Film-look LUT generated by generate_lut.py
# Input  : Rec.709 / sRGB display-referred
# Output : Rec.709 / sRGB display-referred
# Strength: 100%
LUT_3D_SIZE 5
DOMAIN_MIN 0.0 0.0 0.0
DOMAIN_MAX 1.0 1.0 1.0
0.055903 0.066885 0.065453
0.250640 0.076955 0.067647
0.460927 0.100561 0.080221
0.677759 0.136057 0.105516
0.862504 0.172985 0.133545
0.127552 0.269711 0.106709
0.276144 0.271380 0.128242
0.487610 0.298937 0.129642
0.696404 0.300332 0.139663
0.874198 0.307690 0.157144
0.229617 0.488937 0.179743
0.370428 0.491541 0.193262
0.512511 0.492953 0.221943
0.733564 0.537061 0.222569
0.902340 0.546981 0.238627
0.342838 0.711348 0.265388
0.469139 0.711528 0.292340
0.608922 0.717953 0.306867
0.749103 0.718452 0.363759
0.905073 0.765085 0.413208
0.494287 0.877019 0.411642
0.594527 0.878773 0.447971
0.725824 0.885494 0.476265
0.843780 0.902348 0.519212
0.926738 0.898448 0.559382
0.071588 0.104924 0.253437
0.262165 0.114365 0.245950
0.478695 0.126321 0.255668
0.688768 0.131404 0.234406
0.868452 0.154271 0.227527
0.067665 0.285396 0.258297
0.276270 0.279342 0.268622
0.470049 0.271391 0.251353
0.684756 0.280376 0.250718
0.867305 0.294990 0.256869
0.158812 0.496071 0.264136
0.350972 0.492489 0.305631
0.513684 0.499890 0.325869
0.727061 0.528053 0.313286
0.893223 0.529466 0.315804
0.253394 0.714241 0.285299
0.445741 0.712637 0.371136
0.610228 0.717519 0.388048
0.750401 0.723789 0.435868
0.904900 0.769069 0.473367
0.409076 0.877695 0.395396
0.571867 0.879237 0.491576
0.722704 0.885751 0.527940
0.842349 0.902156 0.562433
0.928798 0.902849 0.604055
0.103727 0.173647 0.459312
0.272677 0.128240 0.457082
0.485104 0.192774 0.444355
0.712897 0.220121 0.469849
0.896498 0.221496 0.463553
0.121224 0.337311 0.472239
0.292186 0.315349 0.469309
0.491923 0.321820 0.458825
0.713384 0.317663 0.468034
0.888547 0.304599 0.448080
0.116147 0.521038 0.470270
0.282029 0.523641 0.484949
0.512395 0.507633 0.487893
0.697959 0.486163 0.456798
0.872099 0.493133 0.456139
0.214311 0.735455 0.474153
0.350933 0.726896 0.484887
0.594832 0.718712 0.535790
0.753882 0.735102 0.572964
0.899392 0.767331 0.584591
0.383682 0.887092 0.534564
0.475921 0.882930 0.545290
0.701838 0.887011 0.633327
0.840530 0.901083 0.658440
0.933824 0.912969 0.701982
0.147626 0.246869 0.671312
0.272831 0.173571 0.667120
0.513804 0.207729 0.668193
0.714580 0.274736 0.648676
0.906428 0.312221 0.674438
0.173505 0.395878 0.679730
0.311985 0.360936 0.678559
0.507573 0.318555 0.675578
0.719492 0.376739 0.659600
0.910646 0.398567 0.683969
0.164266 0.572654 0.704047
0.321819 0.568860 0.700063
0.524725 0.538663 0.693241
0.726809 0.547707 0.678295
0.899397 0.548849 0.689092
0.191100 0.756791 0.685574
0.321507 0.757274 0.696575
0.551412 0.761976 0.719263
0.753338 0.742677 0.718538
0.862583 0.715101 0.684347
0.350403 0.912532 0.706608
0.449091 0.911057 0.720440
0.634231 0.904985 0.742748
0.835396 0.901345 0.782735
0.940863 0.926142 0.820507
0.191583 0.317914 0.860567
0.276099 0.228612 0.855479
0.505952 0.227523 0.854985
0.759627 0.298786 0.854153
0.907208 0.352423 0.827394
0.214859 0.447676 0.866724
0.334399 0.410028 0.865267
0.506088 0.335330 0.859970
0.756471 0.385468 0.858614
0.907142 0.435005 0.832844
0.226720 0.621364 0.879728
0.363710 0.617941 0.873015
0.545618 0.579928 0.868380
0.746395 0.548124 0.859682
0.893714 0.598758 0.834471
0.254534 0.803558 0.885209
0.374662 0.798214 0.881701
0.588092 0.792987 0.874391
0.763931 0.765238 0.863805
0.896625 0.781035 0.855762
0.358798 0.923226 0.854649
0.451540 0.925722 0.864810
0.635029 0.934944 0.888525
0.838830 0.952744 0.921398
0.939302 0.928953 0.908268
