luts/CoastalKodachrome_Soft.cube
TITLE "Coastal Kodachrome Soft"
# Film-look LUT generated by generate_lut.py
# Input  : Rec.709 / sRGB display-referred
# Output : Rec.709 / sRGB display-referred
# Strength: 65%
LUT_3D_SIZE 33
DOMAIN_MIN 0.0 0.0 0.0
DOMAIN_MAX 1.0 1.0 1.0
0.036337 0.043475 0.042544
0.061391 0.044158 0.042702
0.087538 0.044898 0.042872
0.114126 0.045674 0.043047
0.141010 0.046481 0.043226
0.168118 0.047320 0.043408
0.195406 0.048189 0.043593
0.222845 0.049089 0.043781
0.250416 0.050021 0.043970
0.278103 0.050986 0.044162
0.305893 0.051985 0.044356
0.333777 0.053019 0.044552
0.361768 0.054699 0.045268
0.389862 0.057086 0.046640
0.418038 0.059756 0.048278
0.446288 0.062552 0.050171
0.474603 0.065364 0.052144
0.502977 0.068197 0.054143
0.531409 0.071047 0.056162
0.559895 0.073912 0.058200
0.588431 0.076793 0.060253
0.617017 0.079686 0.062319
0.645648 0.082592 0.064397
0.674325 0.085509 0.066486
0.703043 0.088437 0.068585
0.731803 0.091375 0.070694
0.767451 0.094249 0.072484
0.798809 0.097178 0.074487
0.826388 0.100157 0.076681
0.850869 0.103178 0.079033
0.872789 0.106236 0.081517
0.892587 0.109324 0.084113
0.910628 0.112440 0.086804
0.040840 0.068989 0.044437
0.063663 0.069263 0.045529
0.090126 0.071535 0.044549
0.116391 0.071749 0.044031
0.142919 0.072012 0.043716
0.169750 0.072794 0.043893
0.196830 0.073666 0.044076
0.224115 0.074608 0.044264
0.251561 0.075549 0.044453
0.279143 0.076464 0.044642
0.306843 0.077366 0.044862
0.334668 0.078884 0.045717
0.362590 0.080527 0.046818
0.390602 0.082283 0.048159
0.418695 0.084139 0.049747
0.446866 0.086091 0.051550
0.475116 0.088145 0.053408
0.503438 0.090290 0.055307
0.531825 0.092514 0.057240
0.560274 0.094811 0.059202
0.588780 0.097171 0.061189
0.617339 0.099588 0.063197
0.645949 0.102058 0.065224
0.674607 0.104574 0.067268
0.703309 0.107131 0.069327
0.732055 0.109725 0.071398
0.767700 0.112278 0.073153
0.799035 0.114909 0.075126
0.826596 0.117611 0.077291
0.851062 0.120374 0.079617
0.872969 0.123190 0.082078
0.892756 0.126053 0.084652
0.910788 0.128956 0.087323
0.045776 0.095736 0.046575
0.070232 0.096187 0.046907
0.091849 0.096096 0.048860
0.119026 0.099579 0.048124
0.145855 0.100990 0.047222
0.172700 0.101412 0.046981
0.199632 0.101701 0.046766
0.226693 0.102009 0.046672
0.253899 0.102411 0.046754
0.281251 0.102941 0.047037
0.308741 0.103614 0.047535
0.336357 0.104429 0.048258
0.364089 0.105383 0.049217
0.391926 0.106468 0.050420
0.419860 0.107676 0.051878
0.447893 0.109020 0.053492
0.476023 0.110503 0.055174
0.504241 0.112111 0.056917
0.532540 0.113834 0.058712
0.560912 0.115659 0.060551
0.589351 0.117579 0.062430
0.617852 0.119583 0.064343
0.646412 0.121666 0.066286
0.675026 0.123819 0.068254
0.703691 0.126037 0.070246
0.732403 0.128315 0.072259
0.768029 0.130565 0.073956
0.799329 0.132919 0.075882
0.826862 0.135363 0.078009
0.851306 0.137885 0.080301
0.873196 0.140475 0.082732
0.892968 0.143124 0.085280
0.910987 0.145827 0.087926
0.051078 0.122985 0.049124
0.077289 0.123308 0.050027
0.098529 0.124028 0.050151
0.120410 0.123385 0.052804
0.147953 0.127168 0.052424
0.175370 0.129804 0.051391
0.202498 0.130825 0.050914
0.229664 0.131260 0.050966
0.256862 0.131555 0.051059
0.284120 0.131808 0.051262
0.311459 0.132079 0.051625
0.338891 0.132408 0.052184
0.366422 0.132821 0.052965
0.394054 0.133333 0.053985
0.421789 0.133962 0.055224
0.449643 0.134742 0.056566
0.477606 0.135669 0.057999
0.505673 0.136739 0.059514
0.533834 0.137941 0.061102
0.562083 0.139269 0.062755
0.590412 0.140713 0.064466
0.618816 0.142264 0.066226
0.647288 0.143914 0.068032
0.675824 0.145657 0.069877
0.704419 0.147484 0.071758
0.733070 0.149390 0.073670
0.768649 0.151272 0.075263
0.799881 0.153288 0.077106
0.827360 0.155418 0.079162
0.851760 0.157645 0.081393
0.873614 0.159957 0.083770
0.893356 0.162344 0.086270
0.911350 0.164797 0.088873
0.056725 0.150549 0.052125
0.084024 0.150806 0.053503
0.105870 0.151258 0.053170
0.127624 0.152273 0.054798
0.149303 0.151018 0.057435
0.177083 0.154905 0.057386
0.204927 0.158254 0.056565
0.232371 0.160084 0.055809
0.259716 0.160860 0.055793
0.287084 0.161246 0.056159
0.314456 0.161493 0.056590
0.341854 0.161669 0.057139
0.369294 0.161822 0.057847
0.396795 0.161992 0.058730
0.424387 0.162240 0.059704
0.452080 0.162593 0.060770
0.479876 0.163066 0.061929
0.507777 0.163665 0.063180
0.535778 0.164394 0.064518
0.563875 0.165250 0.065936
0.592062 0.166230 0.067428
0.620335 0.167329 0.068988
0.648686 0.168539 0.070608
0.677112 0.169856 0.072282
0.705606 0.171274 0.074007
0.734164 0.172784 0.075775
0.769667 0.174262 0.077217
0.800798 0.175908 0.078937
0.828196 0.177694 0.080888
0.852530 0.179598 0.083029
0.874328 0.181605 0.085327
0.894024 0.183701 0.087757
0.911979 0.185877 0.090297
0.062720 0.178351 0.055615
0.090809 0.178565 0.057502
0.113442 0.178909 0.057511
0.134202 0.179541 0.057151
0.157089 0.180762 0.060255
0.178448 0.178924 0.062808
0.206421 0.182866 0.063083
0.234523 0.186585 0.062502
0.262304 0.189102 0.061787
0.289825 0.190397 0.061521
0.317326 0.190965 0.061984
0.344822 0.191260 0.062686
0.372310 0.191427 0.063440
0.399821 0.191538 0.064205
0.427373 0.191638 0.065008
0.454987 0.191766 0.065868
0.482674 0.191953 0.066799
0.510446 0.192219 0.067808
0.538306 0.192582 0.068899
0.566256 0.193050 0.070073
0.594298 0.193629 0.071327
0.622427 0.194320 0.072658
0.650641 0.195124 0.074061
0.678935 0.196036 0.075532
0.707306 0.197055 0.077065
0.735749 0.198176 0.078654
0.771152 0.199240 0.079900
0.802149 0.200508 0.081461
0.829440 0.201943 0.083277
0.853686 0.203517 0.085300
0.875411 0.205210 0.087494
0.895044 0.207007 0.089832
0.912946 0.208896 0.092289
0.069070 0.206347 0.059628
0.097710 0.206531 0.062100
0.120564 0.206802 0.062312
0.142148 0.207274 0.062037
0.163221 0.208129 0.062592
0.186776 0.209438 0.066458
0.207798 0.207060 0.068977
0.235934 0.211041 0.069558
0.264183 0.214945 0.069181
0.292277 0.217983 0.068692
0.320004 0.219786 0.068348
0.347610 0.220686 0.068548
0.375233 0.221102 0.069276
0.402845 0.221344 0.070030
0.430457 0.221490 0.070774
0.458089 0.221587 0.071532
0.485755 0.221670 0.072323
0.513471 0.221771 0.073161
0.541249 0.221914 0.074058
0.569097 0.222120 0.075023
0.597021 0.222403 0.076059
0.625025 0.222774 0.077169
0.653109 0.223239 0.078353
0.681273 0.223802 0.079609
0.709515 0.224466 0.080934
0.737833 0.225228 0.082324
0.773124 0.225897 0.083344
0.803965 0.226801 0.084718
0.831129 0.227897 0.086374
0.855270 0.229151 0.088258
0.876906 0.230539 0.090329
0.896464 0.232044 0.092556
0.914301 0.233652 0.094914
0.075787 0.234508 0.064199
0.104705 0.234667 0.067344
0.127462 0.234887 0.067685
0.149829 0.235261 0.067727
0.170724 0.235846 0.067303
0.192680 0.236927 0.069202
0.216627 0.238271 0.073449
0.237322 0.235401 0.075988
0.265597 0.239411 0.076813
0.293955 0.243418 0.076545
0.322298 0.246823 0.076163
0.350253 0.249094 0.075667
0.378004 0.250394 0.075537
0.405718 0.251048 0.075963
0.433452 0.251386 0.076731
0.461172 0.251596 0.077476
0.488894 0.251726 0.078216
0.516632 0.251812 0.078968
0.544400 0.251883 0.079749
0.572211 0.251964 0.080569
0.600073 0.252076 0.081441
0.627995 0.252238 0.082370
0.655983 0.252462 0.083363
0.684041 0.252760 0.084422
0.712170 0.253137 0.085547
0.740380 0.253600 0.086739
0.775558 0.253921 0.087524
0.806233 0.254499 0.088700
0.833260 0.255286 0.090183
0.857286 0.256245 0.091915
0.878825 0.257351 0.093850
0.898300 0.258584 0.095955
0.916065 0.259929 0.098201
0.082909 0.262812 0.069361
0.111749 0.262951 0.073246
0.134259 0.263131 0.073664
0.157029 0.263434 0.073901
0.178857 0.263910 0.073764
0.199651 0.264635 0.073634
0.222420 0.265888 0.076593
0.246629 0.267242 0.080922
0.266994 0.263897 0.083357
0.295393 0.267926 0.084284
0.323848 0.271999 0.084053
0.352376 0.275662 0.083717
0.380561 0.278350 0.083175
0.408481 0.280054 0.082815
0.436296 0.281020 0.082903
0.464119 0.281518 0.083508
0.491947 0.281809 0.084268
0.519764 0.281995 0.085006
0.547584 0.282112 0.085742
0.575419 0.282189 0.086490
0.603280 0.282250 0.087263
0.631177 0.282317 0.088070
0.659119 0.282407 0.088922
0.687112 0.282536 0.089823
0.715162 0.282716 0.090781
0.743397 0.282952 0.091788
0.778386 0.283003 0.092363
0.808901 0.283312 0.093349
0.835792 0.283836 0.094662
0.859704 0.284540 0.096239
0.881145 0.285398 0.098036
0.900537 0.286390 0.100014
0.918229 0.287498 0.102144
0.090914 0.291243 0.075090
0.118944 0.291364 0.079353
0.141112 0.291512 0.079800
0.163980 0.291763 0.080131
0.186511 0.292153 0.080207
0.207796 0.292722 0.079878
0.228999 0.293622 0.080476
0.252382 0.294991 0.084161
0.276781 0.296337 0.088446
0.296794 0.292515 0.090798
0.325306 0.296562 0.091818
0.353851 0.300680 0.091637
0.382506 0.304517 0.091317
0.410917 0.307566 0.090803
0.439016 0.309658 0.090302
0.466956 0.310961 0.090128
0.494852 0.311701 0.090412
0.522773 0.312101 0.091123
0.550687 0.312357 0.091873
0.578592 0.312523 0.092607
0.606502 0.312630 0.093340
0.634425 0.312700 0.094085
0.662371 0.312754 0.094851
0.690348 0.312809 0.095648
0.718363 0.312882 0.096483
0.746679 0.312976 0.097342
0.781508 0.312849 0.097748
0.811883 0.312962 0.098569
0.838654 0.313282 0.099728
0.862461 0.313781 0.101162
0.883813 0.314434 0.102826
0.903126 0.315222 0.104682
0.920751 0.316130 0.106699
0.099103 0.319782 0.080934
0.126323 0.319891 0.085515
0.148086 0.320012 0.085978
0.170866 0.320224 0.086364
0.193780 0.320549 0.086582
0.215863 0.321027 0.086480
0.236762 0.321681 0.086051
0.258688 0.322770 0.087662
0.282519 0.324214 0.091834
0.307066 0.325542 0.096019
0.326711 0.321242 0.098299
0.355324 0.325308 0.099404
0.383953 0.329455 0.099282
0.412687 0.333404 0.098946
0.441313 0.336760 0.098510
0.469597 0.339209 0.097938
0.497676 0.340852 0.097571
0.525665 0.341868 0.097583
0.553648 0.342451 0.098038
0.581654 0.342789 0.098795
0.609647 0.343017 0.099537
0.637634 0.343168 0.100268
0.665625 0.343266 0.100999
0.693629 0.343330 0.101741
0.721653 0.343378 0.102502
0.750106 0.343410 0.103258
0.784817 0.343199 0.103548
0.815082 0.343193 0.104243
0.841754 0.343374 0.105274
0.865474 0.343722 0.106586
0.886749 0.344219 0.108133
0.905997 0.344847 0.109878
0.923563 0.345592 0.111790
0.107349 0.348418 0.086826
0.133871 0.348519 0.091726
0.155198 0.348620 0.092195
0.177782 0.348799 0.092617
0.200840 0.349076 0.092924
0.223510 0.349478 0.093001
0.245115 0.350037 0.092732
0.266031 0.350810 0.092590
0.288642 0.352054 0.095098
0.312800 0.353542 0.099575
0.337471 0.354846 0.103635
0.356731 0.350067 0.105854
0.385439 0.354154 0.107036
0.414146 0.358319 0.106978
0.442946 0.362351 0.106633
0.471744 0.365945 0.106263
0.500214 0.368718 0.105678
0.528443 0.370690 0.105180
0.556540 0.371997 0.104975
0.584592 0.372806 0.105159
0.612662 0.373277 0.105759
0.640740 0.373576 0.106517
0.668807 0.373781 0.107254
0.696869 0.373919 0.107983
0.724936 0.374010 0.108712
0.753581 0.374049 0.109406
0.788211 0.373840 0.109636
0.818397 0.373788 0.110248
0.844995 0.373892 0.111185
0.868649 0.374144 0.112400
0.889866 0.374533 0.113851
0.909062 0.375044 0.115502
0.926584 0.375666 0.117324
0.115645 0.377143 0.092759
0.141574 0.377239 0.097981
0.162452 0.377323 0.098450
0.184776 0.377476 0.098895
0.207822 0.377715 0.099259
0.230843 0.378058 0.099461
0.253123 0.378536 0.099385
0.274321 0.379167 0.098978
0.295628 0.380091 0.099494
0.318806 0.381452 0.102714
0.343204 0.382962 0.107363
0.367983 0.384242 0.111290
0.386848 0.378983 0.113457
0.415643 0.383091 0.114709
0.444422 0.387266 0.114717
0.473286 0.391364 0.114378
0.502210 0.395133 0.114045
0.530862 0.398195 0.113490
0.559244 0.400478 0.112914
0.587462 0.402078 0.112542
0.615599 0.403134 0.112499
0.643721 0.403791 0.112837
0.671870 0.404185 0.113535
0.700015 0.404453 0.114285
0.728150 0.404640 0.115018
0.757033 0.404745 0.115687
0.791611 0.404611 0.115905
0.821744 0.404574 0.116475
0.848292 0.404657 0.117352
0.871899 0.404863 0.118497
0.893075 0.405187 0.119873
0.912236 0.405622 0.121449
0.929727 0.406159 0.123196
0.123987 0.405951 0.098730
0.149417 0.406043 0.104277
0.169845 0.406113 0.104740
0.191868 0.406245 0.105200
0.214806 0.406453 0.105603
0.237992 0.406750 0.105890
0.260775 0.407161 0.105967
0.282634 0.407712 0.105744
0.303584 0.408413 0.105303
0.325505 0.409503 0.106691
0.349138 0.410950 0.110460
0.373717 0.412467 0.115186
0.398594 0.413722 0.118981
0.417052 0.407982 0.121103
0.445929 0.412112 0.122420
0.474777 0.416291 0.122494
0.503701 0.420442 0.122171
0.532710 0.424335 0.121842
0.561537 0.427652 0.121351
0.590075 0.430223 0.120739
0.618420 0.432109 0.120248
0.646654 0.433422 0.120019
0.674842 0.434288 0.120128
0.703037 0.434831 0.120602
0.731256 0.435172 0.121350
0.760416 0.435395 0.122025
0.794961 0.435392 0.122274
0.825060 0.435423 0.122835
0.851575 0.435530 0.123681
0.875153 0.435731 0.124782
0.896291 0.436032 0.126115
0.915393 0.436433 0.127666
0.932812 0.436927 0.129399
0.132371 0.434834 0.104735
0.157385 0.434925 0.110611
0.177372 0.434984 0.111065
0.199069 0.435097 0.111533
0.221836 0.435279 0.111963
0.245058 0.435540 0.112307
0.268164 0.435897 0.112497
0.290603 0.436376 0.112440
0.312081 0.436993 0.112089
0.333111 0.437799 0.111951
0.355616 0.439027 0.114120
0.379610 0.440536 0.118300
0.404327 0.442048 0.123036
0.429296 0.443279 0.126706
0.447337 0.437058 0.128788
0.476292 0.441211 0.130164
0.505204 0.445390 0.130305
0.534185 0.449583 0.130006
0.563247 0.453560 0.129655
0.592238 0.457099 0.129243
0.620931 0.459934 0.128632
0.649408 0.462094 0.128060
0.677747 0.463665 0.127686
0.706013 0.464753 0.127600
0.734260 0.465473 0.127849
0.763702 0.465916 0.128366
0.798189 0.466107 0.128727
0.828148 0.466269 0.129444
0.854472 0.466472 0.130463
0.877832 0.466741 0.131737
0.898756 0.467086 0.133224
0.917670 0.467509 0.134893
0.934928 0.468007 0.136715
0.140793 0.463789 0.110770
0.165465 0.463879 0.116978
0.185026 0.463928 0.117421
0.206383 0.464026 0.117893
0.228937 0.464186 0.118342
0.252108 0.464417 0.118727
0.275389 0.464731 0.118996
0.298268 0.465150 0.119074
0.320333 0.465695 0.118886
0.341504 0.466368 0.118431
0.362905 0.467310 0.118901
0.385921 0.468649 0.121729
0.410199 0.470200 0.126207
0.435027 0.471701 0.130908
0.460040 0.472867 0.134460
0.477699 0.466205 0.136509
0.506726 0.470383 0.137940
0.535700 0.474559 0.138146
0.564735 0.478784 0.137876
0.593846 0.482832 0.137511
0.622965 0.486544 0.137155
0.651810 0.489619 0.136574
0.680420 0.492038 0.135956
0.708839 0.493865 0.135527
0.737094 0.495196 0.135441
0.766628 0.496155 0.135632
0.800712 0.496766 0.136033
0.830358 0.497139 0.137118
0.856402 0.497488 0.138432
0.879518 0.497860 0.139931
0.900231 0.498276 0.141591
0.918968 0.498743 0.143389
0.936077 0.499264 0.145307
0.149251 0.492809 0.116833
0.173647 0.492900 0.123378
0.192799 0.492942 0.123808
0.213809 0.493027 0.124279
0.236121 0.493167 0.124741
0.259183 0.493373 0.125156
0.282529 0.493652 0.125482
0.305706 0.494021 0.125662
0.328278 0.494502 0.125620
0.349991 0.495106 0.125314
0.371006 0.495843 0.124876
0.392939 0.496930 0.126107
0.416388 0.498357 0.129479
0.440890 0.499936 0.134163
0.465810 0.501421 0.138801
0.490071 0.501749 0.142211
0.508132 0.495419 0.144263
0.537228 0.499623 0.145745
0.566259 0.503793 0.146015
0.595347 0.508044 0.145779
0.624505 0.512152 0.145410
0.653678 0.515995 0.145176
0.682545 0.519299 0.144921
0.711069 0.521982 0.144704
0.739317 0.524090 0.144670
0.768977 0.525781 0.144781
0.802638 0.527093 0.145030
0.831880 0.527872 0.146040
0.857614 0.528434 0.147549
0.880483 0.528938 0.149300
0.900989 0.529447 0.151149
0.919553 0.529977 0.153088
0.936521 0.530538 0.155107
0.157742 0.521892 0.122922
0.181645 0.521981 0.129477
0.200683 0.522020 0.130224
0.221344 0.522093 0.130691
0.243395 0.522218 0.131162
0.266306 0.522401 0.131598
0.289641 0.522651 0.131966
0.312996 0.522980 0.132221
0.335960 0.523406 0.132299
0.358196 0.523945 0.132140
0.379608 0.524603 0.131734
0.400741 0.525436 0.131608
0.423180 0.526647 0.133524
0.446992 0.528143 0.137338
0.471671 0.529737 0.142157
0.496671 0.531203 0.146712
0.520168 0.530686 0.149989
0.538632 0.524697 0.152048
0.567793 0.528928 0.153578
0.596871 0.533088 0.153946
0.625938 0.537358 0.153979
0.654974 0.541520 0.154061
0.683957 0.545475 0.154391
0.712671 0.549005 0.154774
0.740996 0.551955 0.155117
0.770879 0.554529 0.155432
0.804191 0.556732 0.155783
0.833056 0.558104 0.156755
0.858436 0.559058 0.158174
0.881008 0.559806 0.159897
0.901286 0.560458 0.161827
0.919679 0.561075 0.163894
0.936513 0.561691 0.166022
0.166264 0.551034 0.129036
0.189381 0.551116 0.135191
0.208669 0.551159 0.136666
0.228986 0.551223 0.137128
0.250762 0.551332 0.137604
0.273493 0.551497 0.138057
0.296763 0.551722 0.138455
0.320202 0.552017 0.138766
0.343442 0.552397 0.138937
0.366127 0.552878 0.138907
0.388039 0.553473 0.138639
0.409213 0.554177 0.138152
0.430702 0.555135 0.138598
0.453599 0.556450 0.141115
0.477713 0.557999 0.145281
0.502535 0.559595 0.150218
0.527600 0.561029 0.154801
0.550307 0.559660 0.158023
0.569176 0.554026 0.160003
0.598322 0.558269 0.161930
0.627297 0.562415 0.162889
0.656197 0.566706 0.163539
0.685009 0.570931 0.164227
0.713718 0.574986 0.165141
0.742202 0.578732 0.166210
0.772420 0.582253 0.167087
0.805478 0.585456 0.167871
0.834037 0.587550 0.169017
0.859112 0.589016 0.170480
0.881408 0.590125 0.172182
0.901446 0.591031 0.174056
0.919640 0.591822 0.176051
0.936319 0.592552 0.178133
0.174816 0.580232 0.135172
0.197221 0.580308 0.140966
0.216751 0.580355 0.143135
0.236729 0.580410 0.143589
0.258224 0.580507 0.144067
0.280752 0.580655 0.144531
0.303916 0.580859 0.144954
0.327373 0.581126 0.145306
0.350789 0.581467 0.145549
0.373827 0.581898 0.145626
0.396210 0.582432 0.145495
0.417841 0.583072 0.145165
0.438937 0.583826 0.144805
0.460904 0.584896 0.146042
0.484216 0.586273 0.149284
0.508578 0.587830 0.154033
0.533484 0.589399 0.159362
0.558546 0.590797 0.164192
0.580393 0.588592 0.167322
0.599612 0.583342 0.169163
0.628638 0.587603 0.171703
0.657435 0.591755 0.173298
0.686102 0.596079 0.174596
0.714633 0.600374 0.175921
0.743014 0.604535 0.177449
0.773647 0.608936 0.179210
0.806563 0.613147 0.180793
0.834903 0.616030 0.182367
0.859741 0.618090 0.184052
0.881809 0.619640 0.185857
0.901647 0.620870 0.187764
0.919671 0.621900 0.189748
0.936213 0.622801 0.191793
0.183395 0.609483 0.141330
0.205155 0.609554 0.146796
0.224921 0.609605 0.149627
0.244570 0.609653 0.150073
0.265777 0.609739 0.150551
0.288095 0.609869 0.151035
0.311146 0.610043 0.151519
0.334602 0.610267 0.151984
0.358157 0.610552 0.152402
0.381494 0.610912 0.152727
0.404316 0.611362 0.152906
0.426429 0.611917 0.152901
0.447832 0.612574 0.152718
0.469069 0.613394 0.152919
0.491468 0.614549 0.155062
0.515093 0.615974 0.159081
0.539592 0.617546 0.164394
0.564488 0.619104 0.170072
0.589472 0.620488 0.175135
0.610394 0.617474 0.178034
0.629896 0.612630 0.179775
0.658732 0.616926 0.182943
0.687289 0.621102 0.185189
0.715669 0.625470 0.187150
0.743871 0.629841 0.189124
0.774639 0.634718 0.191399
0.807471 0.639799 0.194034
0.835689 0.643464 0.196302
0.860367 0.646150 0.198405
0.882271 0.648186 0.200459
0.901957 0.649789 0.202506
0.919849 0.651100 0.204561
0.936283 0.652214 0.206629
0.192064 0.638757 0.147590
0.213296 0.638798 0.152841
0.233356 0.638826 0.156400
0.252740 0.638842 0.156932
0.273729 0.638884 0.157542
0.295891 0.638962 0.158201
0.318848 0.639082 0.158883
0.342282 0.639251 0.159568
0.365906 0.639478 0.160231
0.389434 0.639775 0.160832
0.412579 0.640157 0.161322
0.435105 0.640639 0.161650
0.456912 0.641225 0.161798
0.478082 0.641910 0.161794
0.499610 0.642833 0.162821
0.522347 0.644075 0.165833
0.546172 0.645553 0.170564
0.570704 0.647150 0.176375
0.595511 0.648716 0.182359
0.620352 0.650106 0.187641
0.640296 0.646307 0.190161
0.660019 0.641888 0.191851
0.688605 0.646233 0.195649
0.716871 0.650449 0.198543
0.744923 0.654871 0.201161
0.775794 0.660050 0.203998
0.808246 0.665540 0.207210
0.836394 0.669872 0.210334
0.860994 0.673161 0.213048
0.882802 0.675689 0.215499
0.902391 0.677682 0.217800
0.920196 0.679297 0.220013
0.936557 0.680645 0.222173
0.201440 0.667787 0.154754
0.222223 0.667783 0.159882
0.242589 0.667780 0.164199
0.261704 0.667767 0.164841
0.282444 0.667774 0.165595
0.304401 0.667814 0.166424
0.327205 0.667894 0.167301
0.350547 0.668022 0.168203
0.374155 0.668207 0.169105
0.397767 0.668458 0.169974
0.421118 0.668788 0.170763
0.443961 0.669212 0.171421
0.466135 0.669739 0.171910
0.487620 0.670367 0.172230
0.508663 0.671110 0.172585
0.530497 0.672148 0.174514
0.553475 0.673477 0.178341
0.577395 0.675017 0.183710
0.601873 0.676652 0.189952
0.626523 0.678241 0.196197
0.651164 0.679658 0.201678
0.670086 0.675097 0.203676
0.689977 0.671116 0.205367
0.718267 0.675524 0.209780
0.746201 0.679795 0.213305
0.777213 0.685110 0.216917
0.809242 0.690805 0.220684
0.837080 0.695427 0.224202
0.861601 0.699176 0.227533
0.883378 0.702159 0.230516
0.902926 0.704527 0.233179
0.920690 0.706444 0.235634
0.937016 0.708029 0.237951
0.211698 0.696496 0.163053
0.232033 0.696463 0.168052
0.252677 0.696437 0.173099
0.271504 0.696406 0.173845
0.291963 0.696392 0.174734
0.313671 0.696406 0.175728
0.336272 0.696460 0.176793
0.359462 0.696561 0.177904
0.382981 0.696717 0.179037
0.406586 0.696937 0.180161
0.430036 0.697232 0.181235
0.453093 0.697614 0.182209
0.475563 0.698094 0.183036
0.497354 0.698675 0.183694
0.518517 0.699353 0.184201
0.539587 0.700192 0.185163
0.561663 0.701346 0.187957
0.584789 0.702769 0.192526
0.608713 0.704379 0.198454
0.633062 0.706064 0.205058
0.657499 0.707692 0.211519
0.681895 0.709151 0.217175
0.699760 0.703849 0.218515
0.719773 0.700317 0.220264
0.747730 0.704799 0.225261
0.778923 0.710044 0.229940
0.810560 0.715776 0.234403
0.838076 0.720552 0.238316
0.862340 0.724480 0.241883
0.883990 0.727712 0.245175
0.903519 0.730384 0.248227
0.921285 0.732575 0.250997
0.937610 0.734381 0.253529
0.222845 0.724876 0.172502
0.242736 0.724830 0.177367
0.263207 0.724790 0.182596
0.282157 0.724751 0.183953
0.302309 0.724725 0.184968
0.323733 0.724726 0.186115
0.346086 0.724766 0.187359
0.369072 0.724852 0.188669
0.392440 0.724993 0.190021
0.415963 0.725196 0.191385
0.439420 0.725471 0.192726
0.462589 0.725827 0.193996
0.485268 0.726275 0.195146
0.507320 0.726821 0.196141
0.528722 0.727465 0.196974
0.549575 0.728201 0.197691
0.570799 0.729169 0.199463
0.593046 0.730441 0.203061
0.616231 0.731964 0.208291
0.640081 0.733654 0.214692
0.664240 0.735401 0.221587
0.688421 0.737082 0.228216
0.712536 0.738597 0.234017
0.729320 0.732570 0.234583
0.749417 0.729494 0.236444
0.780948 0.735039 0.242845
0.812215 0.740584 0.248172
0.839434 0.745389 0.252565
0.863461 0.749417 0.256416
0.884924 0.752763 0.259874
0.904307 0.755542 0.263020
0.921995 0.757860 0.265909
0.938297 0.759805 0.268585
0.234873 0.752930 0.183099
0.254327 0.752880 0.187824
0.274370 0.752838 0.192919
0.293662 0.752799 0.195155
0.313486 0.752772 0.196283
0.334596 0.752770 0.197571
0.356664 0.752807 0.198980
0.379403 0.752891 0.200475
0.402569 0.753028 0.202031
0.425945 0.753227 0.203619
0.449330 0.753495 0.205205
0.472520 0.753840 0.206748
0.495318 0.754271 0.208199
0.517565 0.754796 0.209514
0.539182 0.755417 0.210671
0.560197 0.756129 0.211680
0.580861 0.756951 0.212779
0.602238 0.758059 0.215371
0.624583 0.759454 0.219696
0.647752 0.761083 0.225495
0.671462 0.762861 0.232280
0.695385 0.764681 0.239392
0.719277 0.766426 0.246138
0.743087 0.768009 0.252046
0.758772 0.761269 0.251747
0.783214 0.759834 0.255149
0.814240 0.765554 0.261900
0.841187 0.770325 0.266967
0.865002 0.774464 0.271257
0.886302 0.777977 0.275022
0.905563 0.780941 0.278392
0.923159 0.783446 0.281451
0.939396 0.785573 0.284261
0.250114 0.784615 0.196638
0.269132 0.784576 0.201235
0.288740 0.784548 0.206207
0.308329 0.784524 0.209304
0.327802 0.784512 0.210569
0.348565 0.784530 0.212025
0.370310 0.784588 0.213631
0.392758 0.784695 0.215350
0.415673 0.784859 0.217152
0.438851 0.785086 0.219007
0.462105 0.785383 0.220886
0.485253 0.785755 0.222750
0.508116 0.786210 0.224556
0.530530 0.786755 0.226258
0.552378 0.787392 0.227819
0.573624 0.788122 0.229229
0.594322 0.788938 0.230506
0.614849 0.789888 0.232078
0.636162 0.791137 0.235225
0.658363 0.792668 0.239993
0.681303 0.794429 0.246120
0.704719 0.796345 0.253153
